assets/luts/GoPro_GPLog2_Rec2020_to_Rec709.cube
# GoPro GP-Log2 (log base 600, Rec.2020 gamut) -> Rec.709 conversion
# Generated by scripts/generate-conversion-luts.mjs -- do not hand-edit.
# Spec: GoPro Labs, "GP-Log2 & Logarithmic Exposure"  https://gopro.github.io/labs/log/
#   curve   : L = (600^v - 1) / 599
#   gamut   : Rec.2020 primaries
#   exposure: +1.8 EV, GoPro's published default, "calibrated to restore 18% grey to its
#             correct display value when using nominal camera metering"
# Cameras : MISSION 1 series, MAX 2. HERO13 Black / HERO12 shoot GP-Log (log base 400,
#           GoPro native gamut) -- a different curve GoPro has not published, so it is
#           not covered by this LUT.
# Output  : ITU-R BT.709-6 OETF, clipped to [0,1]. GoPro's optional HSV highlight rolloff
#           is not specified numerically and is deliberately not implemented.
TITLE "GoPro GP-Log2 Rec.2020 to Rec.709"
LUT_3D_SIZE 33
DOMAIN_MIN 0.0 0.0 0.0
DOMAIN_MAX 1.0 1.0 1.0
0.000000 0.000000 0.000000
0.009612 0.000000 0.000000
0.021352 0.000000 0.000000
0.035689 0.000000 0.000000
0.053199 0.000000 0.000000
0.074583 0.000000 0.000000
0.099799 0.000000 0.000000
0.126004 0.000000 0.000000
0.153655 0.000000 0.000000
0.183073 0.000000 0.000000
0.214564 0.000000 0.000000
0.248428 0.000000 0.000000
0.284974 0.000000 0.000000
0.324521 0.000000 0.000000
0.367409 0.000000 0.000000
0.414000 0.000000 0.000000
0.464682 0.000000 0.000000
0.519876 0.000000 0.000000
0.580035 0.000000 0.000000
0.645653 0.000000 0.000000
0.717266 0.000000 0.000000
0.795459 0.000000 0.000000
0.880868 0.000000 0.000000
0.974188 0.000000 0.000000
1.000000 0.000000 0.000000
1.000000 0.000000 0.000000
1.000000 0.000000 0.000000
1.000000 0.000000 0.000000
1.000000 0.000000 0.000000
1.000000 0.000000 0.000000
1.000000 0.000000 0.000000
1.000000 0.000000 0.000000
1.000000 0.000000 0.000000
0.000000 0.006558 0.000000
0.006211 0.005837 0.000000
0.017950 0.004957 0.000000
0.032287 0.003881 0.000000
0.049797 0.002568 0.000000
0.071181 0.000964 0.000000
0.096749 0.000000 0.000000
0.123388 0.000000 0.000000
0.151388 0.000000 0.000000
0.181094 0.000000 0.000000
0.212827 0.000000 0.000000
0.246897 0.000000 0.000000
0.283619 0.000000 0.000000
0.323320 0.000000 0.000000
0.366342 0.000000 0.000000
0.413050 0.000000 0.000000
0.463836 0.000000 0.000000
0.519121 0.000000 0.000000
0.579361 0.000000 0.000000
0.645051 0.000000 0.000000
0.716728 0.000000 0.000000
0.794978 0.000000 0.000000
0.880438 0.000000 0.000000
0.973803 0.000000 0.000000
1.000000 0.000000 0.000000
1.000000 0.000000 0.000000
1.000000 0.000000 0.000000
1.000000 0.000000 0.000000
1.000000 0.000000 0.000000
1.000000 0.000000 0.000000
1.000000 0.000000 0.000000
1.000000 0.000000 0.000000
1.000000 0.000000 0.000000
0.000000 0.014568 0.000000
0.002056 0.013847 0.000000
0.013795 0.012966 0.000000
0.028133 0.011891 0.000000
0.045642 0.010577 0.000000
0.067027 0.008973 0.000000
0.092942 0.007014 0.000000
0.120141 0.004622 0.000000
0.148584 0.001700 0.000000
0.178654 0.000000 0.000000
0.210689 0.000000 0.000000
0.245015 0.000000 0.000000
0.281956 0.000000 0.000000
0.321847 0.000000 0.000000
0.365034 0.000000 0.000000
0.411887 0.000000 0.000000
0.462800 0.000000 0.000000
0.518198 0.000000 0.000000
0.578537 0.000000 0.000000
0.644315 0.000000 0.000000
0.716071 0.000000 0.000000
0.794390 0.000000 0.000000
0.879912 0.000000 0.000000
0.973333 0.000000 0.000000
1.000000 0.000000 0.000000
1.000000 0.000000 0.000000
1.000000 0.000000 0.000000
1.000000 0.000000 0.000000
1.000000 0.000000 0.000000
1.000000 0.000000 0.000000
1.000000 0.000000 0.000000
1.000000 0.000000 0.000000
1.000000 0.000000 0.000000
0.000000 0.024349 0.000000
0.000000 0.023628 0.000000
0.008722 0.022748 0.000000
0.023059 0.021672 0.000000
0.040569 0.020359 0.000000
0.061953 0.018755 0.000000
0.088165 0.016796 0.000000
0.116093 0.014404 0.000000
0.145108 0.011482 0.000000
0.175637 0.007913 0.000000
0.208053 0.003555 0.000000
0.242699 0.000000 0.000000
0.279914 0.000000 0.000000
0.320040 0.000000 0.000000
0.363431 0.000000 0.000000
0.410463 0.000000 0.000000
0.461533 0.000000 0.000000
0.517068 0.000000 0.000000
0.577529 0.000000 0.000000
0.643415 0.000000 0.000000
0.715267 0.000000 0.000000
0.793671 0.000000 0.000000
0.879269 0.000000 0.000000
0.972758 0.000000 0.000000
1.000000 0.000000 0.000000
1.000000 0.000000 0.000000
1.000000 0.000000 0.000000
1.000000 0.000000 0.000000
1.000000 0.000000 0.000000
1.000000 0.000000 0.000000
1.000000 0.000000 0.000000
1.000000 0.000000 0.000000
1.000000 0.000000 0.000000
0.000000 0.036296 0.000000
0.000000 0.035575 0.000000
0.002525 0.034694 0.000000
0.016862 0.033619 0.000000
0.034372 0.032305 0.000000
0.055756 0.030701 0.000000
0.082119 0.028742 0.000000
0.111021 0.026350 0.000000
0.140777 0.023428 0.000000
0.171897 0.019860 0.000000
0.204796 0.015502 0.000000
0.239845 0.010179 0.000000
0.277401 0.003679 0.000000
0.317820 0.000000 0.000000
0.361464 0.000000 0.000000
0.408716 0.000000 0.000000
0.459979 0.000000 0.000000
0.515684 0.000000 0.000000
0.576295 0.000000 0.000000
0.642314 0.000000 0.000000
0.714283 0.000000 0.000000
0.792793 0.000000 0.000000
0.878484 0.000000 0.000000
0.972056 0.000000 0.000000
1.000000 0.000000 0.000000
1.000000 0.000000 0.000000
1.000000 0.000000 0.000000
1.000000 0.000000 0.000000
1.000000 0.000000 0.000000
1.000000 0.000000 0.000000
1.000000 0.000000 0.000000
1.000000 0.000000 0.000000
1.000000 0.000000 0.000000
0.000000 0.050886 0.000000
0.000000 0.050165 0.000000
0.000000 0.049284 0.000000
0.009294 0.048209 0.000000
0.026804 0.046895 0.000000
0.048188 0.045291 0.000000
0.074305 0.043332 0.000000
0.104615 0.040940 0.000000
0.135356 0.038018 0.000000
0.167243 0.034450 0.000000
0.200759 0.030092 0.000000
0.236319 0.024769 0.000000
0.274305 0.018269 0.000000
0.315089 0.010330 0.000000
0.359048 0.000635 0.000000
0.406574 0.000000 0.000000
0.458075 0.000000 0.000000
0.513989 0.000000 0.000000
0.574785 0.000000 0.000000
0.640967 0.000000 0.000000
0.713081 0.000000 0.000000
0.791718 0.000000 0.000000
0.877523 0.000000 0.000000
0.971197 0.000000 0.000000
1.000000 0.000000 0.000000
1.000000 0.000000 0.000000
1.000000 0.000000 0.000000
1.000000 0.000000 0.000000
1.000000 0.000000 0.000000
1.000000 0.000000 0.000000
1.000000 0.000000 0.000000
1.000000 0.000000 0.000000
1.000000 0.000000 0.000000
0.000000 0.068704 0.000000
0.000000 0.067983 0.000000
0.000000 0.067103 0.000000
0.000052 0.066027 0.000000
0.017562 0.064714 0.000000
0.038946 0.063110 0.000000
0.065062 0.061151 0.000000
0.096441 0.058758 0.000000
0.128519 0.055837 0.000000
0.161419 0.052268 0.000000
0.195737 0.047910 0.000000
0.231950 0.042588 0.000000
0.270479 0.036087 0.000000
0.311723 0.028149 0.000000
0.356076 0.018454 0.000000
0.403941 0.006613 0.000000
0.455738 0.000000 0.000000
0.511912 0.000000 0.000000
0.572935 0.000000 0.000000
0.639317 0.000000 0.000000
0.711609 0.000000 0.000000
0.790404 0.000000 0.000000
0.876349 0.000000 0.000000
0.970147 0.000000 0.000000
1.000000 0.000000 0.000000
1.000000 0.000000 0.000000
1.000000 0.000000 0.000000
1.000000 0.000000 0.000000
1.000000 0.000000 0.000000
1.000000 0.000000 0.000000
1.000000 0.000000 0.000000
1.000000 0.000000 0.000000
1.000000 0.000000 0.000000
0.000000 0.090439 0.000000
0.000000 0.089758 0.000000
0.000000 0.088923 0.000000
0.000000 0.087896 0.000000
0.006274 0.086632 0.000000
0.027658 0.085075 0.000000
0.053775 0.083151 0.000000
0.085853 0.080520 0.000000
0.119813 0.077598 0.000000
0.154084 0.074030 0.000000
0.189459 0.069672 0.000000
0.226517 0.064349 0.000000
0.265741 0.057849 0.000000
0.307567 0.049910 0.000000
0.352414 0.040215 0.000000
0.400704 0.028374 0.000000
0.452869 0.013913 0.000000
0.509363 0.000000 0.000000
0.570667 0.000000 0.000000
0.637297 0.000000 0.000000
0.709807 0.000000 0.000000
0.788795 0.000000 0.000000
0.874912 0.000000 0.000000
0.968863 0.000000 0.000000
1.000000 0.000000 0.000000
1.000000 0.000000 0.000000
1.000000 0.000000 0.000000
1.000000 0.000000 0.000000
1.000000 0.000000 0.000000
1.000000 0.000000 0.000000
1.000000 0.000000 0.000000
1.000000 0.000000 0.000000
1.000000 0.000000 0.000000
0.000000 0.113719 0.000000
0.000000 0.113129 0.000000
0.000000 0.112404 0.000000
0.000000 0.111516 0.000000
0.000000 0.110425 0.000000
0.013873 0.109082 0.000000
0.039989 0.107428 0.000000
0.071885 0.105386 0.000000
0.108569 0.102858 0.000000
0.144757 0.099716 0.000000
0.181556 0.095796 0.000000
0.219728 0.090872 0.000000
0.259850 0.084639 0.000000
0.302419 0.076487 0.000000
0.347891 0.066792 0.000000
0.396714 0.054951 0.000000
0.449339 0.040490 0.000000
0.506231 0.022829 0.000000
0.567884 0.001260 0.000000
0.634820 0.000000 0.000000
0.707599 0.000000 0.000000
0.786826 0.000000 0.000000
0.873154 0.000000 0.000000
0.967292 0.000000 0.000000
1.000000 0.000000 0.000000
1.000000 0.000000 0.000000
1.000000 0.000000 0.000000
1.000000 0.000000 0.000000
1.000000 0.000000 0.000000
1.000000 0.000000 0.000000
1.000000 0.000000 0.000000
1.000000 0.000000 0.000000
1.000000 0.000000 0.000000
0.000000 0.138488 0.000000
0.000000 0.137972 0.000000
0.000000 0.137340 0.000000
0.000000 0.136565 0.000000
0.000000 0.135614 0.000000
0.000000 0.134447 0.000000
0.023153 0.133011 0.000000
0.055049 0.131243 0.000000
0.093737 0.129062 0.000000
0.132738 0.126362 0.000000
0.171520 0.123010 0.000000
0.211188 0.118830 0.000000
0.252491 0.113589 0.000000
0.296020 0.106966 0.000000
0.342291 0.098506 0.000000
0.391788 0.087532 0.000000
0.444990 0.072948 0.000000
0.502380 0.055287 0.000000
0.564466 0.033718 0.000000
0.631781 0.007376 0.000000
0.704893 0.000000 0.000000
0.784414 0.000000 0.000000
0.871002 0.000000 0.000000
0.965370 0.000000 0.000000
1.000000 0.000000 0.000000
1.000000 0.000000 0.000000
1.000000 0.000000 0.000000
1.000000 0.000000 0.000000
1.000000 0.000000 0.000000
1.000000 0.000000 0.000000
1.000000 0.000000 0.000000
1.000000 0.000000 0.000000
1.000000 0.000000 0.000000
0.000000 0.165001 0.000000
0.000000 0.164548 0.000000
0.000000 0.163993 0.000000
0.000000 0.163313 0.000000
0.000000 0.162480 0.000000
0.000000 0.161458 0.000000
0.002591 0.160204 0.000000
0.034487 0.158661 0.000000
0.073441 0.156762 0.000000
0.116938 0.154419 0.000000
0.158610 0.151521 0.000000
0.200352 0.147926 0.000000
0.243240 0.143445 0.000000
0.288030 0.137833 0.000000
0.335331 0.130750 0.000000
0.385689 0.121719 0.000000
0.439620 0.110038 0.000000
0.497636 0.094588 0.000000
0.560263 0.073359 0.000000
0.628048 0.047017 0.000000
0.701573 0.014846 0.000000
0.781457 0.000000 0.000000
0.868365 0.000000 0.000000
0.963017 0.000000 0.000000
1.000000 0.000000 0.000000
1.000000 0.000000 0.000000
1.000000 0.000000 0.000000
1.000000 0.000000 0.000000
1.000000 0.000000 0.000000
1.000000 0.000000 0.000000
1.000000 0.000000 0.000000
1.000000 0.000000 0.000000
1.000000 0.000000 0.000000
0.000000 0.193513 0.000000
0.000000 0.193113 0.000000
0.000000 0.192624 0.000000
0.000000 0.192025 0.000000
0.000000 0.191291 0.000000
0.000000 0.190392 0.000000
0.000000 0.189290 0.000000
0.009375 0.187937 0.000000
0.048329 0.186273 0.000000
0.095480 0.184226 0.000000
0.141681 0.181700 0.000000
0.186431 0.178577 0.000000
0.231510 0.174704 0.000000
0.277988 0.169881 0.000000
0.326642 0.163843 0.000000
0.378111 0.156232 0.000000
0.432972 0.146542 0.000000
0.491778 0.134033 0.000000
0.555084 0.117544 0.000000
0.623458 0.095048 0.000000
0.697496 0.063258 0.000000
0.777829 0.023968 0.000000
0.865133 0.000000 0.000000
0.960135 0.000000 0.000000
1.000000 0.000000 0.000000
1.000000 0.000000 0.000000
1.000000 0.000000 0.000000
1.000000 0.000000 0.000000
1.000000 0.000000 0.000000
1.000000 0.000000 0.000000
1.000000 0.000000 0.000000
1.000000 0.000000 0.000000
1.000000 0.000000 0.000000
0.000000 0.224282 0.000000
0.000000 0.223928 0.000000
0.000000 0.223495 0.000000
0.000000 0.222966 0.000000
0.000000 0.222318 0.000000
0.000000 0.221524 0.000000
0.000000 0.220552 0.000000
0.000000 0.219359 0.000000
0.017660 0.217895 0.000000
0.065234 0.216096 0.000000
0.118792 0.213881 0.000000
0.168213 0.211150 0.000000
0.216455 0.207775 0.000000
0.265264 0.203590 0.000000
0.315727 0.198381 0.000000
0.368651 0.191863 0.000000
0.424712 0.183654 0.000000
0.484526 0.173214 0.000000
0.548690 0.159759 0.000000
0.617803 0.142068 0.000000
0.692481 0.118034 0.000000
0.773373 0.083330 0.000000
0.861168 0.035109 0.000000
0.956601 0.000000 0.000000
1.000000 0.000000 0.000000
1.000000 0.000000 0.000000
1.000000 0.000000 0.000000
1.000000 0.000000 0.000000
1.000000 0.000000 0.000000
1.000000 0.000000 0.000000
1.000000 0.000000 0.000000
1.000000 0.000000 0.000000
1.000000 0.000000 0.000000
0.000000 0.257578 0.000000
0.000000 0.257264 0.000000
0.000000 0.256880 0.000000
0.000000 0.256411 0.000000
0.000000 0.255837 0.000000
0.000000 0.255134 0.000000
0.000000 0.254274 0.000000
0.000000 0.253219 0.000000
0.000000 0.251926 0.000000
0.027779 0.250339 0.000000
0.086056 0.248388 0.000000
0.143664 0.245988 0.000000
0.196784 0.243029 0.000000
0.248945 0.239371 0.000000
0.301900 0.234838 0.000000
0.356771 0.229197 0.000000
0.414403 0.222143 0.000000
0.475518 0.213263 0.000000
0.540776 0.201980 0.000000
0.610821 0.187457 0.000000
0.686303 0.168398 0.000000
0.767893 0.142592 0.000000
0.856298 0.105576 0.000000
0.952266 0.048715 0.000000
1.000000 0.000000 0.000000
1.000000 0.000000 0.000000
1.000000 0.000000 0.000000
1.000000 0.000000 0.000000
1.000000 0.000000 0.000000
1.000000 0.000000 0.000000
1.000000 0.000000 0.000000
1.000000 0.000000 0.000000
1.000000 0.000000 0.000000
0.000000 0.293687 0.000000
0.000000 0.293408 0.000000
0.000000 0.293067 0.000000
0.000000 0.292651 0.000000
0.000000 0.292141 0.000000
0.000000 0.291517 0.000000
0.000000 0.290754 0.000000
0.000000 0.289819 0.000000
0.000000 0.288673 0.000000
0.000000 0.287269 0.000000
0.040137 0.285545 0.000000
0.108785 0.283427 0.000000
0.170345 0.280820 0.000000
0.227650 0.277607 0.000000
0.284180 0.273637 0.000000
0.341727 0.268716 0.000000
0.401460 0.262596 0.000000
0.464276 0.254945 0.000000
0.530945 0.245318 0.000000
0.602180 0.233094 0.000000
0.678677 0.217376 0.000000
0.761143 0.196780 0.000000
0.850308 0.168962 0.000000
0.946942 0.129264 0.000000
1.000000 0.065333 0.000000
1.000000 0.000000 0.000000
1.000000 0.000000 0.000000
1.000000 0.000000 0.000000
1.000000 0.000000 0.000000
1.000000 0.000000 0.000000
1.000000 0.000000 0.000000
1.000000 0.000000 0.000000
1.000000 0.000000 0.000000
0.000000 0.332914 0.000000
0.000000 0.332666 0.000000
0.000000 0.332362 0.000000
0.000000 0.331991 0.000000
0.000000 0.331538 0.000000
0.000000 0.330983 0.000000
0.000000 0.330305 0.000000
0.000000 0.329474 0.000000
0.000000 0.328457 0.000000
0.000000 0.327212 0.000000
0.000000 0.325684 0.000000
0.055229 0.323809 0.000000
0.132968 0.321505 0.000000
0.199084 0.318671 0.000000
0.261078 0.315177 0.000000
0.322457 0.310860 0.000000
0.385075 0.305512 0.000000
0.450163 0.298860 0.000000
0.518678 0.290548 0.000000
0.591446 0.280092 0.000000
0.669238 0.266825 0.000000
0.752810 0.249777 0.000000
0.842930 0.227464 0.000000
0.940395 0.197389 0.000000
1.000000 0.154637 0.000000
1.000000 0.085811 0.000000
1.000000 0.000000 0.000000
1.000000 0.000000 0.000000
1.000000 0.000000 0.000000
1.000000 0.000000 0.000000
1.000000 0.000000 0.000000
1.000000 0.000000 0.000000
1.000000 0.000000 0.000000
0.000000 0.375585 0.000000
0.000000 0.375364 0.000000
0.000000 0.375094 0.000000
0.000000 0.374763 0.000000
0.000000 0.374359 0.000000
0.000000 0.373866 0.000000
0.000000 0.373262 0.000000
0.000000 0.372523 0.000000
0.000000 0.371618 0.000000
0.000000 0.370511 0.000000
0.000000 0.369154 0.000000
0.000000 0.367491 0.000000
0.073661 0.365449 0.000000
0.158857 0.362941 0.000000
0.230138 0.359855 0.000000
0.297354 0.356052 0.000000
0.364095 0.351353 0.000000
0.432302 0.345532 0.000000
0.503280 0.338294 0.000000
0.578053 0.329251 0.000000
0.657513 0.317880 0.000000
0.742496 0.303456 0.000000
0.833823 0.284934 0.000000
0.932330 0.260716 0.000000
1.000000 0.228123 0.000000
1.000000 0.181934 0.000000
1.000000 0.108209 0.000000
1.000000 0.000000 0.000000
1.000000 0.000000 0.000000
1.000000 0.000000 0.000000
1.000000 0.000000 0.000000
1.000000 0.000000 0.000000
1.000000 0.000000 0.000000
0.000000 0.422055 0.000000
0.000000 0.421857 0.000000
0.000000 0.421616 0.000000
0.000000 0.421322 0.000000
0.000000 0.420962 0.000000
0.000000 0.420521 0.000000
0.000000 0.419983 0.000000
0.000000 0.419325 0.000000
0.000000 0.418519 0.000000
0.000000 0.417534 0.000000
0.000000 0.416327 0.000000
0.000000 0.414848 0.000000
0.000000 0.413035 0.000000
0.095725 0.410810 0.000000
0.186697 0.408077 0.000000
0.263776 0.404714 0.000000
0.336782 0.400569 0.000000
0.409440 0.395450 0.000000
0.483796 0.389108 0.000000
0.561245 0.381224 0.000000
0.642886 0.371375 0.000000
0.729686 0.358994 0.000000
0.822551 0.343294 0.000000
0.922374 0.323145 0.000000
1.000000 0.296818 0.000000
1.000000 0.261431 0.000000
1.000000 0.211404 0.000000
1.000000 0.132078 0.000000
1.000000 0.000000 0.000000
1.000000 0.000000 0.000000
1.000000 0.000000 0.000000
1.000000 0.000000 0.000000
1.000000 0.000000 0.000000
0.000000 0.472705 0.000000
0.000000 0.472529 0.000000
0.000000 0.472313 0.000000
0.000000 0.472050 0.000000
0.000000 0.471729 0.000000
0.000000 0.471336 0.000000
0.000000 0.470856 0.000000
0.000000 0.470269 0.000000
0.000000 0.469551 0.000000
0.000000 0.468672 0.000000
0.000000 0.467597 0.000000
0.000000 0.466281 0.000000
0.000000 0.464668 0.000000
0.000000 0.462691 0.000000
0.119052 0.460264 0.000000
0.216743 0.457283 0.000000
0.300284 0.453616 0.000000
0.379690 0.449096 0.000000
0.458864 0.443514 0.000000
0.539979 0.436599 0.000000
0.624530 0.428004 0.000000
0.713706 0.417268 0.000000
0.808551 0.403775 0.000000
0.910051 0.386671 0.000000
1.000000 0.364726 0.000000
1.000000 0.336071 0.000000
1.000000 0.297595 0.000000
1.000000 0.243303 0.000000
1.000000 0.157659 0.000000
1.000000 0.000000 0.000000
1.000000 0.000000 0.000000
1.000000 0.000000 0.000000
1.000000 0.000000 0.000000
0.000000 0.527951 0.000000
0.000000 0.527794 0.000000
0.000000 0.527601 0.000000
0.000000 0.527366 0.000000
0.000000 0.527079 0.000000
0.000000 0.526729 0.000000
0.000000 0.526300 0.000000
0.000000 0.525776 0.000000
0.000000 0.525135 0.000000
0.000000 0.524351 0.000000
0.000000 0.523393 0.000000
0.000000 0.522219 0.000000
0.000000 0.520783 0.000000
0.000000 0.519023 0.000000
0.000000 0.516865 0.000000
0.143943 0.514217 0.000000
0.249257 0.510964 0.000000
0.339969 0.506962 0.000000
0.426433 0.502030 0.000000
0.512773 0.495939 0.000000
0.601309 0.488395 0.000000
0.693652 0.479018 0.000000
0.791087 0.467308 0.000000
0.894748 0.452592 0.000000
1.000000 0.433942 0.000000
1.000000 0.410022 0.000000
1.000000 0.378803 0.000000
1.000000 0.336917 0.000000
1.000000 0.277905 0.000000
1.000000 0.185192 0.000000
1.000000 0.000000 0.000000
1.000000 0.000000 0.000000
1.000000 0.000000 0.000000
0.000000 0.588245 0.000000
0.000000 0.588104 0.000000
0.000000 0.587932 0.000000
0.000000 0.587722 0.000000
0.000000 0.587466 0.000000
0.000000 0.587152 0.000000
0.000000 0.586769 0.000000
0.000000 0.586301 0.000000
0.000000 0.585729 0.000000
0.000000 0.585029 0.000000
0.000000 0.584174 0.000000
0.000000 0.583127 0.000000
0.000000 0.581846 0.000000
0.000000 0.580277 0.000000
0.000000 0.578356 0.000000
0.005452 0.575999 0.000000
0.170645 0.573108 0.000000
0.284518 0.569557 0.000000
0.383160 0.565188 0.000000
0.477395 0.559803 0.000000
0.571607 0.553154 0.000000
0.668287 0.544919 0.000000
0.769173 0.534684 0.000000
0.875659 0.521904 0.000000
0.988978 0.505845 0.000000
1.000000 0.485496 0.000000
1.000000 0.459405 0.000000
1.000000 0.425365 0.000000
1.000000 0.379724 0.000000
1.000000 0.315501 0.000000
1.000000 0.214927 0.000000
1.000000 0.000000 0.000000
1.000000 0.000000 0.000000
0.000000 0.654078 0.000000
0.000000 0.653952 0.000000
0.000000 0.653799 0.000000
0.000000 0.653611 0.000000
0.000000 0.653382 0.000000
0.000000 0.653102 0.000000
0.000000 0.652759 0.000000
0.000000 0.652341 0.000000
0.000000 0.651830 0.000000
0.000000 0.651204 0.000000
0.000000 0.650440 0.000000
0.000000 0.649506 0.000000
0.000000 0.648362 0.000000
0.000000 0.646963 0.000000
0.000000 0.645250 0.000000
0.000000 0.643150 0.000000
0.012870 0.640577 0.000000
0.199407 0.637419 0.000000
0.322825 0.633540 0.000000
0.430215 0.628768 0.000000
0.532993 0.622888 0.000000
0.635846 0.615626 0.000000
0.741458 0.606633 0.000000
0.851707 0.595456 0.000000
0.968109 0.581501 0.000000
1.000000 0.563968 0.000000
1.000000 0.541755 0.000000
1.000000 0.513279 0.000000
1.000000 0.476140 0.000000
1.000000 0.426369 0.000000
1.000000 0.356405 0.000000
1.000000 0.247121 0.000000
1.000000 0.000000 0.000000
0.000000 0.725987 0.000000
0.000000 0.725875 0.000000
0.000000 0.725737 0.000000
0.000000 0.725569 0.000000
0.000000 0.725364 0.000000
0.000000 0.725114 0.000000
0.000000 0.724808 0.000000
0.000000 0.724434 0.000000
0.000000 0.723977 0.000000
0.000000 0.723418 0.000000
0.000000 0.722735 0.000000
0.000000 0.721900 0.000000
0.000000 0.720879 0.000000
0.000000 0.719629 0.000000
0.000000 0.718100 0.000000
0.000000 0.716228 0.000000
0.000000 0.713935 0.000000
0.021928 0.711123 0.000000
0.230488 0.707673 0.000000
0.364496 0.703435 0.000000
0.481520 0.698221 0.000000
0.593682 0.691797 0.000000
0.706014 0.683864 0.000000
0.821416 0.674039 0.000000
0.941924 0.661830 0.000000
1.000000 0.646586 0.000000
1.000000 0.627436 0.000000
1.000000 0.603177 0.000000
1.000000 0.572084 0.000000
1.000000 0.531542 0.000000
1.000000 0.477235 0.000000
1.000000 0.400954 0.000000
1.000000 0.282051 0.000000
0.000000 0.804557 0.000000
0.000000 0.804456 0.000000
0.000000 0.804334 0.000000
0.000000 0.804183 0.000000
0.000000 0.804000 0.000000
0.000000 0.803776 0.000000
0.000000 0.803502 0.000000
0.000000 0.803167 0.000000
0.000000 0.802758 0.000000
0.000000 0.802259 0.000000
0.000000 0.801648 0.000000
0.000000 0.800902 0.000000
0.000000 0.799989 0.000000
0.000000 0.798873 0.000000
0.000000 0.797508 0.000000
0.000000 0.795837 0.000000
0.000000 0.793791 0.000000
0.000000 0.791284 0.000000
0.032991 0.788212 0.000000
0.264155 0.784441 0.000000
0.409876 0.779809 0.000000
0.537495 0.774112 0.000000
0.659956 0.767091 0.000000
0.782682 0.758422 0.000000
0.908811 0.747686 0.000000
1.000000 0.734345 0.000000
1.000000 0.717689 0.000000
1.000000 0.696766 0.000000
1.000000 0.670264 0.000000
1.000000 0.636301 0.000000
1.000000 0.592026 0.000000
1.000000 0.532737 0.000000
1.000000 0.449516 0.000000
0.000000 0.890426 0.000000
0.000000 0.890336 0.000000
0.000000 0.890226 0.000000
0.000000 0.890092 0.000000
0.000000 0.889927 0.000000
0.000000 0.889727 0.000000
0.000000 0.889482 0.000000
0.000000 0.889182 0.000000
0.000000 0.888817 0.000000
0.000000 0.888370 0.000000
0.000000 0.887824 0.000000
0.000000 0.887156 0.000000
0.000000 0.886340 0.000000
0.000000 0.885343 0.000000
0.000000 0.884123 0.000000
0.000000 0.882630 0.000000
0.000000 0.880804 0.000000
0.000000 0.878567 0.000000
0.000000 0.875827 0.000000
0.046502 0.872468 0.000000
0.300696 0.868347 0.000000
0.459339 0.863284 0.000000
0.598597 0.857056 0.000000
0.732355 0.849382 0.000000
0.866472 0.839906 0.000000
1.000000 0.828172 0.000000
1.000000 0.813591 0.000000
1.000000 0.795387 0.000000
1.000000 0.772521 0.000000
1.000000 0.743561 0.000000
1.000000 0.706451 0.000000
1.000000 0.658082 0.000000
1.000000 0.593331 0.000000
0.000000 0.984292 0.000000
0.000000 0.984211 0.000000
0.000000 0.984113 0.000000
0.000000 0.983992 0.000000
0.000000 0.983845 0.000000
0.000000 0.983666 0.000000
0.000000 0.983447 0.000000
0.000000 0.983179 0.000000
0.000000 0.982851 0.000000
0.000000 0.982452 0.000000
0.000000 0.981963 0.000000
0.000000 0.981366 0.000000
0.000000 0.980636 0.000000
0.000000 0.979744 0.000000
0.000000 0.978653 0.000000
0.000000 0.977319 0.000000
0.000000 0.975688 0.000000
0.000000 0.973691 0.000000
0.000000 0.971246 0.000000
0.000000 0.968250 0.000000
0.063003 0.964578 0.000000
0.340417 0.960072 0.000000
0.513291 0.954537 0.000000
0.665325 0.947728 0.000000
0.811468 0.939339 0.000000
0.958065 0.928979 0.000000
1.000000 0.916151 0.000000
1.000000 0.900211 0.000000
1.000000 0.880312 0.000000
