assets/luts/GoPro_GPLog2_Rec2020_to_Rec709.cube
# GoPro GP-Log2 (log base 600, Rec.2020 gamut) -> Rec.709 conversion
# Generated by scripts/generate-conversion-luts.mjs -- do not hand-edit.
# Spec: GoPro Labs, "GP-Log2 & Logarithmic Exposure"  https://gopro.github.io/labs/log/
#   curve   : L = (600^v - 1) / 599
#   gamut   : Rec.2020 primaries
#   exposure: +1.8 EV, GoPro's published default, "calibrated to restore 18% grey to its
#             correct display value when using nominal camera metering"
# Cameras : MISSION 1 series, MAX 2. HERO13 Black / HERO12 shoot GP-Log (log base 400,
#           GoPro native gamut) -- a different curve GoPro has not published, so it is
#           not covered by this LUT.
# Output  : ITU-R BT.709-6 OETF, clipped to [0,1]. GoPro's optional HSV highlight rolloff
#           is not specified numerically and is deliberately not implemented.
TITLE "GoPro GP-Log2 Rec.2020 to Rec.709"
LUT_3D_SIZE 9
DOMAIN_MIN 0.0 0.0 0.0
DOMAIN_MAX 1.0 1.0 1.0
0.000000 0.000000 0.000000
0.053199 0.000000 0.000000
0.153655 0.000000 0.000000
0.284974 0.000000 0.000000
0.464682 0.000000 0.000000
0.717266 0.000000 0.000000
1.000000 0.000000 0.000000
1.000000 0.000000 0.000000
1.000000 0.000000 0.000000
0.000000 0.036296 0.000000
0.034372 0.032305 0.000000
0.140777 0.023428 0.000000
0.277401 0.003679 0.000000
0.459979 0.000000 0.000000
0.714283 0.000000 0.000000
1.000000 0.000000 0.000000
1.000000 0.000000 0.000000
1.000000 0.000000 0.000000
0.000000 0.113719 0.000000
0.000000 0.110425 0.000000
0.108569 0.102858 0.000000
0.259850 0.084639 0.000000
0.449339 0.040490 0.000000
0.707599 0.000000 0.000000
1.000000 0.000000 0.000000
1.000000 0.000000 0.000000
1.000000 0.000000 0.000000
0.000000 0.224282 0.000000
0.000000 0.222318 0.000000
0.017660 0.217895 0.000000
0.216455 0.207775 0.000000
0.424712 0.183654 0.000000
0.692481 0.118034 0.000000
1.000000 0.000000 0.000000
1.000000 0.000000 0.000000
1.000000 0.000000 0.000000
0.000000 0.375585 0.000000
0.000000 0.374359 0.000000
0.000000 0.371618 0.000000
0.073661 0.365449 0.000000
0.364095 0.351353 0.000000
0.657513 0.317880 0.000000
1.000000 0.228123 0.000000
1.000000 0.000000 0.000000
1.000000 0.000000 0.000000
0.000000 0.588245 0.000000
0.000000 0.587466 0.000000
0.000000 0.585729 0.000000
0.000000 0.581846 0.000000
0.170645 0.573108 0.000000
0.571607 0.553154 0.000000
0.988978 0.505845 0.000000
1.000000 0.379724 0.000000
1.000000 0.000000 0.000000
0.000000 0.890426 0.000000
0.000000 0.889927 0.000000
0.000000 0.888817 0.000000
0.000000 0.886340 0.000000
0.000000 0.880804 0.000000
0.300696 0.868347 0.000000
0.866472 0.839906 0.000000
1.000000 0.772521 0.000000
1.000000 0.593331 0.000000
0.000000 1.000000 0.000000
0.000000 1.000000 0.000000
0.000000 1.000000 0.000000
0.000000 1.000000 0.000000
0.000000 1.000000 0.000000
0.000000 1.000000 0.000000
0.482100 1.000000 0.000000
1.000000 1.000000 0.000000
1.000000 1.000000 0.000000
0.000000 1.000000 0.000000
0.000000 1.000000 0.000000
0.000000 1.000000 0.000000
0.000000 1.000000 0.000000
0.000000 1.000000 0.000000
0.000000 1.000000 0.000000
0.000000 1.000000 0.000000
0.739046 1.000000 0.000000
1.000000 1.000000 0.000000
0.000000 0.000000 0.035842
0.050865 0.000000 0.035260
0.152102 0.000000 0.033967
0.284045 0.000000 0.031089
0.464102 0.000000 0.024686
0.716897 0.000000 0.010442
1.000000 0.000000 0.000000
1.000000 0.000000 0.000000
1.000000 0.000000 0.000000
0.000000 0.036028 0.032619
0.032038 0.032038 0.032038
0.139122 0.023161 0.030744
0.276450 0.003412 0.027866
0.459393 0.000000 0.021463
0.713913 0.000000 0.007219
1.000000 0.000000 0.000000
1.000000 0.000000 0.000000
1.000000 0.000000 0.000000
0.000000 0.113500 0.025451
0.000000 0.110201 0.024869
0.106591 0.102624 0.023576
0.258841 0.084377 0.020698
0.448738 0.040223 0.014295
0.707225 0.000000 0.000051
1.000000 0.000000 0.000000
1.000000 0.000000 0.000000
1.000000 0.000000 0.000000
0.000000 0.224150 0.009503
0.000000 0.222186 0.008921
0.015326 0.217761 0.007627
0.215273 0.207635 0.004749
0.424077 0.183499 0.000000
0.692098 0.117820 0.000000
1.000000 0.000000 0.000000
1.000000 0.000000 0.000000
1.000000 0.000000 0.000000
0.000000 0.375503 0.000000
0.000000 0.374277 0.000000
0.000000 0.371536 0.000000
0.071327 0.365365 0.000000
0.363357 0.351265 0.000000
0.657108 0.317783 0.000000
1.000000 0.227994 0.000000
1.000000 0.000000 0.000000
1.000000 0.000000 0.000000
0.000000 0.588193 0.000000
0.000000 0.587414 0.000000
0.000000 0.585677 0.000000
0.000000 0.581793 0.000000
0.169212 0.573055 0.000000
0.571137 0.553099 0.000000
0.988719 0.505784 0.000000
1.000000 0.379643 0.000000
1.000000 0.000000 0.000000
0.000000 0.890393 0.000000
0.000000 0.889894 0.000000
0.000000 0.888783 0.000000
0.000000 0.886307 0.000000
0.000000 0.880770 0.000000
0.299812 0.868312 0.000000
0.866172 0.839871 0.000000
1.000000 0.772482 0.000000
1.000000 0.593279 0.000000
0.000000 1.000000 0.000000
0.000000 1.000000 0.000000
0.000000 1.000000 0.000000
0.000000 1.000000 0.000000
0.000000 1.000000 0.000000
0.000000 1.000000 0.000000
0.481541 1.000000 0.000000
1.000000 1.000000 0.000000
1.000000 1.000000 0.000000
0.000000 1.000000 0.000000
0.000000 1.000000 0.000000
0.000000 1.000000 0.000000
0.000000 1.000000 0.000000
0.000000 1.000000 0.000000
0.000000 1.000000 0.000000
0.000000 1.000000 0.000000
0.738689 1.000000 0.000000
1.000000 1.000000 0.000000
0.000000 0.000000 0.112518
0.045672 0.000000 0.112038
0.148605 0.000000 0.110967
0.281969 0.000000 0.108558
0.462808 0.000000 0.103074
0.716075 0.000000 0.090168
1.000000 0.000000 0.058490
1.000000 0.000000 0.000000
1.000000 0.000000 0.000000
0.000000 0.035433 0.109843
0.026846 0.031443 0.109356
0.135386 0.022566 0.108268
0.274322 0.002816 0.105820
0.458085 0.000000 0.100243
0.713087 0.000000 0.087096
1.000000 0.000000 0.055267
1.000000 0.000000 0.000000
1.000000 0.000000 0.000000
0.000000 0.113012 0.103738
0.000000 0.109704 0.103233
0.102104 0.102104 0.102104
0.256583 0.083793 0.099563
0.447400 0.039628 0.093764
0.706391 0.000000 0.079787
1.000000 0.000000 0.048099
1.000000 0.000000 0.000000
1.000000 0.000000 0.000000
0.000000 0.223858 0.089279
0.000000 0.221891 0.088726
0.010134 0.217461 0.087489
0.212624 0.207324 0.084699
0.422660 0.183155 0.078083
0.691244 0.117344 0.063839
1.000000 0.000000 0.032151
1.000000 0.000000 0.000000
1.000000 0.000000 0.000000
0.000000 0.375321 0.053760
0.000000 0.374094 0.053178
0.000000 0.371351 0.051885
0.066134 0.365178 0.049007
0.361709 0.351071 0.042604
0.656207 0.317569 0.028360
1.000000 0.227706 0.000000
1.000000 0.000000 0.000000
1.000000 0.000000 0.000000
0.000000 0.588077 0.000000
0.000000 0.587297 0.000000
0.000000 0.585560 0.000000
0.000000 0.581676 0.000000
0.165989 0.572935 0.000000
0.570092 0.552975 0.000000
0.988140 0.505648 0.000000
1.000000 0.379462 0.000000
1.000000 0.000000 0.000000
0.000000 0.890318 0.000000
0.000000 0.889820 0.000000
0.000000 0.888709 0.000000
0.000000 0.886232 0.000000
0.000000 0.880694 0.000000
0.297836 0.868236 0.000000
0.865502 0.839791 0.000000
1.000000 0.772395 0.000000
1.000000 0.593164 0.000000
0.000000 1.000000 0.000000
0.000000 1.000000 0.000000
0.000000 1.000000 0.000000
0.000000 1.000000 0.000000
0.000000 1.000000 0.000000
0.000000 1.000000 0.000000
0.480295 1.000000 0.000000
1.000000 1.000000 0.000000
1.000000 1.000000 0.000000
0.000000 1.000000 0.000000
0.000000 1.000000 0.000000
0.000000 1.000000 0.000000
0.000000 1.000000 0.000000
0.000000 1.000000 0.000000
0.000000 1.000000 0.000000
0.000000 1.000000 0.000000
0.737893 1.000000 0.000000
1.000000 1.000000 0.000000
0.000000 0.000000 0.222456
0.034121 0.000000 0.222168
0.140600 0.000000 0.221528
0.277299 0.000000 0.220098
0.459916 0.000000 0.216889
0.714243 0.000000 0.209601
1.000000 0.000000 0.192583
1.000000 0.000000 0.149526
1.000000 0.000000 0.008547
0.000000 0.034109 0.220860
0.015294 0.030119 0.220571
0.126803 0.021242 0.219927
0.269534 0.001493 0.218488
0.455163 0.000000 0.215258
0.711247 0.000000 0.207923
1.000000 0.000000 0.190784
1.000000 0.000000 0.147335
1.000000 0.000000 0.005325
0.000000 0.111922 0.217274
0.000000 0.108592 0.216981
0.091655 0.100940 0.216328
0.251497 0.082484 0.214869
0.444407 0.038304 0.211593
0.704532 0.000000 0.204149
1.000000 0.000000 0.186731
1.000000 0.000000 0.142374
1.000000 0.000000 0.000000
0.000000 0.223207 0.209113
0.000000 0.221235 0.208811
0.000000 0.216794 0.208136
0.206629 0.206629 0.206629
0.419493 0.182387 0.203244
0.689342 0.116280 0.195541
1.000000 0.000000 0.177454
1.000000 0.000000 0.130863
1.000000 0.000000 0.000000
0.000000 0.374914 0.189937
0.000000 0.373686 0.189610
0.000000 0.370940 0.188880
0.054583 0.364760 0.187248
0.358018 0.350637 0.183577
0.654195 0.317093 0.175192
1.000000 0.227064 0.155312
1.000000 0.000000 0.102323
1.000000 0.000000 0.000000
0.000000 0.587818 0.140421
0.000000 0.587039 0.140009
0.000000 0.585301 0.139089
0.000000 0.581414 0.137027
0.158642 0.572670 0.132359
0.567758 0.552699 0.121538
0.986853 0.505346 0.094773
1.000000 0.379060 0.024632
1.000000 0.000000 0.000000
0.000000 0.890153 0.000000
0.000000 0.889654 0.000000
0.000000 0.888543 0.000000
0.000000 0.886066 0.000000
0.000000 0.880527 0.000000
0.293397 0.868066 0.000000
0.864012 0.839615 0.000000
1.000000 0.772202 0.000000
1.000000 0.592908 0.000000
0.000000 1.000000 0.000000
0.000000 1.000000 0.000000
0.000000 1.000000 0.000000
0.000000 1.000000 0.000000
0.000000 1.000000 0.000000
0.000000 1.000000 0.000000
0.477510 1.000000 0.000000
1.000000 1.000000 0.000000
1.000000 1.000000 0.000000
0.000000 1.000000 0.000000
0.000000 1.000000 0.000000
0.000000 1.000000 0.000000
0.000000 1.000000 0.000000
0.000000 1.000000 0.000000
0.000000 1.000000 0.000000
0.000000 1.000000 0.000000
0.736120 1.000000 0.000000
1.000000 1.000000 0.000000
0.000000 0.000000 0.372905
0.008423 0.000000 0.372725
0.121503 0.000000 0.372325
0.266649 0.000000 0.371434
0.453416 0.000000 0.369444
0.710150 0.000000 0.364979
1.000000 0.000000 0.354853
1.000000 0.000000 0.331272
1.000000 0.000000 0.272132
0.000000 0.031164 0.371908
0.000000 0.027174 0.371728
0.106115 0.018296 0.371327
0.258599 0.000000 0.370434
0.448595 0.000000 0.368438
0.707135 0.000000 0.363962
1.000000 0.000000 0.353808
1.000000 0.000000 0.330156
1.000000 0.000000 0.270794
0.000000 0.109470 0.369682
0.000000 0.106092 0.369501
0.066063 0.098321 0.369098
0.239845 0.079294 0.368199
0.437677 0.035358 0.366192
0.700378 0.000000 0.361689
1.000000 0.000000 0.351472
1.000000 0.000000 0.327661
1.000000 0.000000 0.267797
0.000000 0.221753 0.364683
0.000000 0.219770 0.364499
0.000000 0.215304 0.364091
0.192749 0.205078 0.363180
0.412359 0.180669 0.361146
0.685089 0.113890 0.356582
1.000000 0.000000 0.346221
1.000000 0.000000 0.322044
1.000000 0.000000 0.261018
0.000000 0.374008 0.353318
0.000000 0.372777 0.353128
0.000000 0.370025 0.352707
0.028885 0.363830 0.351768
0.349671 0.349671 0.349671
0.649697 0.316030 0.344962
1.000000 0.225631 0.334260
1.000000 0.000000 0.309210
1.000000 0.000000 0.245350
0.000000 0.587243 0.326691
0.000000 0.586463 0.326487
0.000000 0.584723 0.326033
0.000000 0.580832 0.325022
0.141304 0.572079 0.322761
0.562532 0.552086 0.317677
0.983982 0.504673 0.306086
1.000000 0.378163 0.278723
1.000000 0.000000 0.206922
0.000000 0.889785 0.258607
0.000000 0.889286 0.258355
0.000000 0.888174 0.257793
0.000000 0.885696 0.256539
0.000000 0.880154 0.253731
0.283294 0.867687 0.247382
0.860686 0.839222 0.232723
1.000000 0.771772 0.196879
1.000000 0.592338 0.086981
0.000000 1.000000 0.000000
0.000000 1.000000 0.000000
0.000000 1.000000 0.000000
0.000000 1.000000 0.000000
0.000000 1.000000 0.000000
0.000000 1.000000 0.000000
0.471255 1.000000 0.000000
1.000000 1.000000 0.000000
1.000000 1.000000 0.000000
0.000000 1.000000 0.000000
0.000000 1.000000 0.000000
0.000000 1.000000 0.000000
0.000000 1.000000 0.000000
0.000000 1.000000 0.000000
0.000000 1.000000 0.000000
0.000000 1.000000 0.000000
0.732158 1.000000 0.000000
1.000000 1.000000 0.000000
0.000000 0.000000 0.584363
0.000000 0.000000 0.584249
0.069603 0.000000 0.583995
0.241480 0.000000 0.583429
0.438610 0.000000 0.582168
0.700952 0.000000 0.579352
1.000000 0.000000 0.573035
1.000000 0.000000 0.558715
1.000000 0.000000 0.525408
0.000000 0.024612 0.583730
0.000000 0.020621 0.583616
0.050777 0.011744 0.583361
0.232676 0.000000 0.582794
0.433624 0.000000 0.581532
0.697894 0.000000 0.578713
1.000000 0.000000 0.572389
1.000000 0.000000 0.558052
1.000000 0.000000 0.524700
0.000000 0.103887 0.582318
0.000000 0.100392 0.582204
0.008893 0.092336 0.581949
0.211986 0.072742 0.581381
0.422321 0.028806 0.580115
0.691040 0.000000 0.577288
1.000000 0.000000 0.570948
1.000000 0.000000 0.556572
1.000000 0.000000 0.523123
0.000000 0.218489 0.579165
0.000000 0.216481 0.579050
0.000000 0.211956 0.578793
0.158540 0.201590 0.578222
0.396035 0.176801 0.576949
0.675525 0.108452 0.574106
1.000000 0.000000 0.567729
1.000000 0.000000 0.553267
1.000000 0.000000 0.519598
0.000000 0.371985 0.572086
0.000000 0.370748 0.571969
0.000000 0.367981 0.571709
0.000000 0.361752 0.571130
0.330386 0.347512 0.569841
0.639569 0.313654 0.566961
1.000000 0.222415 0.560499
1.000000 0.000000 0.545838
1.000000 0.000000 0.511665
0.000000 0.585961 0.555999
0.000000 0.585179 0.555879
0.000000 0.583435 0.555611
0.000000 0.579536 0.555015
0.095841 0.570761 0.553686
0.550719 0.550719 0.550719
0.977562 0.503173 0.544056
1.000000 0.376162 0.528923
1.000000 0.000000 0.493548
0.000000 0.888965 0.518357
0.000000 0.888465 0.518228
0.000000 0.887353 0.517940
0.000000 0.884872 0.517299
0.000000 0.879325 0.515870
0.259559 0.866845 0.512676
0.853236 0.838348 0.505497
1.000000 0.770814 0.489141
1.000000 0.591067 0.450597
0.000000 1.000000 0.422491
0.000000 1.000000 0.422332
0.000000 1.000000 0.421978
0.000000 1.000000 0.421190
0.000000 1.000000 0.419431
0.000000 1.000000 0.415491
0.457029 1.000000 0.406591
1.000000 1.000000 0.386071
1.000000 1.000000 0.336118
0.000000 1.000000 0.000000
0.000000 1.000000 0.000000
0.000000 1.000000 0.000000
0.000000 1.000000 0.000000
0.000000 1.000000 0.000000
0.000000 1.000000 0.000000
0.000000 1.000000 0.000000
0.723260 1.000000 0.000000
1.000000 1.000000 0.000000
0.000000 0.000000 0.884838
0.000000 0.000000 0.884765
0.000000 0.000000 0.884602
0.175169 0.000000 0.884240
0.403740 0.000000 0.883433
0.680010 0.000000 0.881636
1.000000 0.000000 0.877623
1.000000 0.000000 0.868622
1.000000 0.000000 0.848221
0.000000 0.010035 0.884432
0.000000 0.006044 0.884359
0.000000 0.000000 0.884196
0.163579 0.000000 0.883834
0.398323 0.000000 0.883027
0.676851 0.000000 0.881228
1.000000 0.000000 0.877213
1.000000 0.000000 0.868208
1.000000 0.000000 0.847796
0.000000 0.090737 0.883529
0.000000 0.086937 0.883456
0.000000 0.077914 0.883293
0.135244 0.058165 0.882930
0.386005 0.014229 0.882122
0.669767 0.000000 0.880322
1.000000 0.000000 0.876302
1.000000 0.000000 0.867286
1.000000 0.000000 0.846850
0.000000 0.211076 0.881517
0.000000 0.209008 0.881444
0.000000 0.204347 0.881280
0.051822 0.193650 0.880916
0.357130 0.167948 0.880106
0.653713 0.095681 0.878301
1.000000 0.000000 0.874272
1.000000 0.000000 0.865232
1.000000 0.000000 0.844742
0.000000 0.367446 0.877022
0.000000 0.366194 0.876948
0.000000 0.363393 0.876784
0.000000 0.357088 0.876418
0.283153 0.342663 0.875603
0.616407 0.308308 0.873788
1.000000 0.215116 0.869735
1.000000 0.000000 0.860644
1.000000 0.000000 0.840031
0.000000 0.583099 0.866930
0.000000 0.582312 0.866855
0.000000 0.580560 0.866688
0.000000 0.576640 0.866318
0.000000 0.567819 0.865493
0.523449 0.547664 0.863654
0.963109 0.499820 0.859549
1.000000 0.371672 0.850338
1.000000 0.000000 0.829444
0.000000 0.887138 0.844002
0.000000 0.886637 0.843925
0.000000 0.885522 0.843754
0.000000 0.883035 0.843372
0.000000 0.877476 0.842522
0.198295 0.864966 0.840629
0.836400 0.836400 0.836400
1.000000 0.768679 0.826906
1.000000 0.588231 0.805347
0.000000 1.000000 0.790381
0.000000 1.000000 0.790298
0.000000 1.000000 0.790114
0.000000 1.000000 0.789704
0.000000 1.000000 0.788791
0.000000 1.000000 0.786757
0.423668 1.000000 0.782209
1.000000 1.000000 0.771988
1.000000 1.000000 0.748707
0.000000 1.000000 0.654056
0.000000 1.000000 0.653955
0.000000 1.000000 0.653729
0.000000 1.000000 0.653227
0.000000 1.000000 0.652107
0.000000 1.000000 0.649609
0.000000 1.000000 0.644016
0.703030 1.000000 0.631384
1.000000 1.000000 0.602277
0.000000 0.000000 1.000000
0.000000 0.000000 1.000000
0.000000 0.000000 1.000000
0.000000 0.000000 1.000000
0.312989 0.000000 1.000000
0.630761 0.000000 1.000000
1.000000 0.000000 1.000000
1.000000 0.000000 1.000000
1.000000 0.000000 1.000000
0.000000 0.000000 1.000000
0.000000 0.000000 1.000000
0.000000 0.000000 1.000000
0.000000 0.000000 1.000000
0.306054 0.000000 1.000000
0.627338 0.000000 1.000000
1.000000 0.000000 1.000000
1.000000 0.000000 1.000000
1.000000 0.000000 1.000000
0.000000 0.058352 1.000000
0.000000 0.054362 1.000000
0.000000 0.045485 1.000000
0.000000 0.025736 1.000000
0.290079 0.000000 1.000000
0.619653 0.000000 1.000000
1.000000 0.000000 1.000000
1.000000 0.000000 1.000000
1.000000 0.000000 1.000000
0.000000 0.193754 1.000000
0.000000 0.191535 1.000000
0.000000 0.186522 1.000000
0.000000 0.174965 1.000000
0.251303 0.146840 1.000000
0.602183 0.063693 1.000000
1.000000 0.000000 1.000000
1.000000 0.000000 1.000000
1.000000 0.000000 1.000000
0.000000 0.357148 1.000000
0.000000 0.355861 1.000000
0.000000 0.352983 1.000000
0.000000 0.346496 1.000000
0.136927 0.331636 1.000000
0.561275 0.296095 1.000000
0.983295 0.198083 1.000000
1.000000 0.000000 1.000000
1.000000 0.000000 1.000000
0.000000 0.576677 1.000000
0.000000 0.575882 1.000000
0.000000 0.574109 1.000000
0.000000 0.570143 1.000000
0.000000 0.561215 1.000000
0.456830 0.540805 1.000000
0.930061 0.492276 1.000000
1.000000 0.361490 1.000000
1.000000 0.000000 1.000000
0.000000 0.883059 1.000000
0.000000 0.882556 1.000000
0.000000 0.881435 1.000000
0.000000 0.878936 1.000000
0.000000 0.873347 1.000000
0.000000 0.860772 1.000000
0.797550 0.832047 1.000000
1.000000 0.763906 1.000000
1.000000 0.581869 1.000000
0.000000 1.000000 1.000000
0.000000 1.000000 1.000000
0.000000 1.000000 1.000000
0.000000 1.000000 1.000000
0.000000 1.000000 1.000000
0.000000 1.000000 1.000000
0.338085 1.000000 1.000000
1.000000 1.000000 1.000000
1.000000 1.000000 1.000000
0.000000 1.000000 1.000000
0.000000 1.000000 1.000000
0.000000 1.000000 1.000000
0.000000 1.000000 1.000000
0.000000 1.000000 1.000000
0.000000 1.000000 1.000000
0.000000 1.000000 1.000000
0.655626 1.000000 1.000000
1.000000 1.000000 1.000000
0.000000 0.000000 1.000000
0.000000 0.000000 1.000000
0.000000 0.000000 1.000000
0.000000 0.000000 1.000000
0.000000 0.000000 1.000000
0.503216 0.000000 1.000000
0.952726 0.000000 1.000000
1.000000 0.000000 1.000000
1.000000 0.000000 1.000000
0.000000 0.000000 1.000000
0.000000 0.000000 1.000000
0.000000 0.000000 1.000000
0.000000 0.000000 1.000000
0.000000 0.000000 1.000000
0.498881 0.000000 1.000000
0.950540 0.000000 1.000000
1.000000 0.000000 1.000000
1.000000 0.000000 1.000000
0.000000 0.000000 1.000000
0.000000 0.000000 1.000000
0.000000 0.000000 1.000000
0.000000 0.000000 1.000000
0.000000 0.000000 1.000000
0.489096 0.000000 1.000000
0.945657 0.000000 1.000000
1.000000 0.000000 1.000000
1.000000 0.000000 1.000000
0.000000 0.149838 1.000000
0.000000 0.147126 1.000000
0.000000 0.140957 1.000000
0.000000 0.126486 1.000000
0.000000 0.089329 1.000000
0.466582 0.000000 1.000000
0.934691 0.000000 1.000000
1.000000 0.000000 1.000000
1.000000 0.000000 1.000000
0.000000 0.333155 1.000000
0.000000 0.331780 1.000000
0.000000 0.328702 1.000000
0.000000 0.321754 1.000000
0.000000 0.305773 1.000000
0.412087 0.267120 1.000000
0.909772 0.155099 1.000000
1.000000 0.000000 1.000000
1.000000 0.000000 1.000000
0.000000 0.562118 1.000000
0.000000 0.561301 1.000000
0.000000 0.559479 1.000000
0.000000 0.555405 1.000000
0.000000 0.546227 1.000000
0.253594 0.525215 1.000000
0.851444 0.475057 1.000000
1.000000 0.337790 1.000000
1.000000 0.000000 1.000000
0.000000 0.873910 1.000000
0.000000 0.873401 1.000000
0.000000 0.872267 1.000000
0.000000 0.869738 1.000000
0.000000 0.864085 1.000000
0.000000 0.851359 1.000000
0.702748 0.822274 1.000000
1.000000 0.753168 1.000000
1.000000 0.567448 1.000000
0.000000 1.000000 1.000000
0.000000 1.000000 1.000000
0.000000 1.000000 1.000000
0.000000 1.000000 1.000000
0.000000 1.000000 1.000000
0.000000 1.000000 1.000000
0.000000 1.000000 1.000000
1.000000 1.000000 1.000000
1.000000 1.000000 1.000000
0.000000 1.000000 1.000000
0.000000 1.000000 1.000000
0.000000 1.000000 1.000000
0.000000 1.000000 1.000000
0.000000 1.000000 1.000000
0.000000 1.000000 1.000000
0.000000 1.000000 1.000000
0.534331 1.000000 1.000000
1.000000 1.000000 1.000000
