assets/luts/GoPro_GPLog2_Rec2020_to_Rec709.cube
# GoPro GP-Log2 (log base 600, Rec.2020 gamut) -> Rec.709 conversion
# Generated by scripts/generate-conversion-luts.mjs -- do not hand-edit.
# Spec: GoPro Labs, "GP-Log2 & Logarithmic Exposure"  https://gopro.github.io/labs/log/
#   curve   : L = (600^v - 1) / 599
#   gamut   : Rec.2020 primaries
#   exposure: +1.8 EV, GoPro's published default, "calibrated to restore 18% grey to its
#             correct display value when using nominal camera metering"
# Cameras : MISSION 1 series, MAX 2. HERO13 Black / HERO12 shoot GP-Log (log base 400,
#           GoPro native gamut) -- a different curve GoPro has not published, so it is
#           not covered by this LUT.
# Output  : ITU-R BT.709-6 OETF, clipped to [0,1]. GoPro's optional HSV highlight rolloff
#           is not specified numerically and is deliberately not implemented.
TITLE "GoPro GP-Log2 Rec.2020 to Rec.709"
LUT_3D_SIZE 5
DOMAIN_MIN 0.0 0.0 0.0
DOMAIN_MAX 1.0 1.0 1.0
0.000000 0.000000 0.000000
0.153655 0.000000 0.000000
0.464682 0.000000 0.000000
1.000000 0.000000 0.000000
1.000000 0.000000 0.000000
0.000000 0.113719 0.000000
0.108569 0.102858 0.000000
0.449339 0.040490 0.000000
1.000000 0.000000 0.000000
1.000000 0.000000 0.000000
0.000000 0.375585 0.000000
0.000000 0.371618 0.000000
0.364095 0.351353 0.000000
1.000000 0.228123 0.000000
1.000000 0.000000 0.000000
0.000000 0.890426 0.000000
0.000000 0.888817 0.000000
0.000000 0.880804 0.000000
0.866472 0.839906 0.000000
1.000000 0.593331 0.000000
0.000000 1.000000 0.000000
0.000000 1.000000 0.000000
0.000000 1.000000 0.000000
0.000000 1.000000 0.000000
1.000000 1.000000 0.000000
0.000000 0.000000 0.112518
0.148605 0.000000 0.110967
0.462808 0.000000 0.103074
1.000000 0.000000 0.058490
1.000000 0.000000 0.000000
0.000000 0.113012 0.103738
0.102104 0.102104 0.102104
0.447400 0.039628 0.093764
1.000000 0.000000 0.048099
1.000000 0.000000 0.000000
0.000000 0.375321 0.053760
0.000000 0.371351 0.051885
0.361709 0.351071 0.042604
1.000000 0.227706 0.000000
1.000000 0.000000 0.000000
0.000000 0.890318 0.000000
0.000000 0.888709 0.000000
0.000000 0.880694 0.000000
0.865502 0.839791 0.000000
1.000000 0.593164 0.000000
0.000000 1.000000 0.000000
0.000000 1.000000 0.000000
0.000000 1.000000 0.000000
0.000000 1.000000 0.000000
1.000000 1.000000 0.000000
0.000000 0.000000 0.372905
0.121503 0.000000 0.372325
0.453416 0.000000 0.369444
1.000000 0.000000 0.354853
1.000000 0.000000 0.272132
0.000000 0.109470 0.369682
0.066063 0.098321 0.369098
0.437677 0.035358 0.366192
1.000000 0.000000 0.351472
1.000000 0.000000 0.267797
0.000000 0.374008 0.353318
0.000000 0.370025 0.352707
0.349671 0.349671 0.349671
1.000000 0.225631 0.334260
1.000000 0.000000 0.245350
0.000000 0.889785 0.258607
0.000000 0.888174 0.257793
0.000000 0.880154 0.253731
0.860686 0.839222 0.232723
1.000000 0.592338 0.086981
0.000000 1.000000 0.000000
0.000000 1.000000 0.000000
0.000000 1.000000 0.000000
0.000000 1.000000 0.000000
1.000000 1.000000 0.000000
0.000000 0.000000 0.884838
0.000000 0.000000 0.884602
0.403740 0.000000 0.883433
1.000000 0.000000 0.877623
1.000000 0.000000 0.848221
0.000000 0.090737 0.883529
0.000000 0.077914 0.883293
0.386005 0.014229 0.882122
1.000000 0.000000 0.876302
1.000000 0.000000 0.846850
0.000000 0.367446 0.877022
0.000000 0.363393 0.876784
0.283153 0.342663 0.875603
1.000000 0.215116 0.869735
1.000000 0.000000 0.840031
0.000000 0.887138 0.844002
0.000000 0.885522 0.843754
0.000000 0.877476 0.842522
0.836400 0.836400 0.836400
1.000000 0.588231 0.805347
0.000000 1.000000 0.654056
0.000000 1.000000 0.653729
0.000000 1.000000 0.652107
0.000000 1.000000 0.644016
1.000000 1.000000 0.602277
0.000000 0.000000 1.000000
0.000000 0.000000 1.000000
0.000000 0.000000 1.000000
0.952726 0.000000 1.000000
1.000000 0.000000 1.000000
0.000000 0.000000 1.000000
0.000000 0.000000 1.000000
0.000000 0.000000 1.000000
0.945657 0.000000 1.000000
1.000000 0.000000 1.000000
0.000000 0.333155 1.000000
0.000000 0.328702 1.000000
0.000000 0.305773 1.000000
0.909772 0.155099 1.000000
1.000000 0.000000 1.000000
0.000000 0.873910 1.000000
0.000000 0.872267 1.000000
0.000000 0.864085 1.000000
0.702748 0.822274 1.000000
1.000000 0.567448 1.000000
0.000000 1.000000 1.000000
0.000000 1.000000 1.000000
0.000000 1.000000 1.000000
0.000000 1.000000 1.000000
1.000000 1.000000 1.000000
