assets/luts/Insta360_iLog_Rec2020_to_Rec709.cube
# Insta360 i-Log -> Rec.709 conversion -- APPROXIMATE
# Generated by scripts/generate-conversion-luts.mjs -- do not hand-edit.
# Insta360 publishes NO i-Log transfer function. Only the gamut is a published fact:
#   "10-bit I-Log with 14 stops of dynamic range" / "The color space of the I-Log final
#   video is Rec.2020"  --  Insta360 Luna Ultra online manual
#   https://onlinemanual.insta360.com/lunaultra/en-us/operation-tutorials/shooting-preview/shooting-specs/i-log
# The curve is MODELLED: normalized log family L = (B^v - 1)/(B - 1) with base B = 400 and
# 18% grey assumed at code value 0.46. See INSTA360_I_LOG in the generator for the full list
# of assumptions and how to recalibrate against a grey card.
# Treat this as a starting point, not a colorimetrically exact transform.
# Output  : ITU-R BT.709-6 OETF, clipped to [0,1].
TITLE "Insta360 i-Log to Rec.709 (approximate)"
LUT_3D_SIZE 5
DOMAIN_MIN 0.0 0.0 0.0
DOMAIN_MAX 1.0 1.0 1.0
0.000000 0.000000 0.000000
0.234004 0.000000 0.000000
0.616516 0.000000 0.000000
1.000000 0.000000 0.000000
1.000000 0.000000 0.000000
0.000000 0.181368 0.000000
0.174580 0.167053 0.000000
0.595310 0.086298 0.000000
1.000000 0.000000 0.000000
1.000000 0.000000 0.000000
0.000000 0.503420 0.000000
0.000000 0.497943 0.000000
0.488835 0.472660 0.000000
1.000000 0.337301 0.000000
1.000000 0.000000 0.000000
0.000000 1.000000 0.000000
0.000000 1.000000 0.000000
0.000000 1.000000 0.000000
1.000000 1.000000 0.000000
1.000000 0.785218 0.000000
0.000000 1.000000 0.000000
0.000000 1.000000 0.000000
0.000000 1.000000 0.000000
0.000000 1.000000 0.000000
1.000000 1.000000 0.000000
0.000000 0.000000 0.179785
0.227348 0.000000 0.177740
0.613929 0.000000 0.168361
1.000000 0.000000 0.120314
1.000000 0.000000 0.000000
0.000000 0.180436 0.168213
0.166059 0.166059 0.166059
0.592625 0.084747 0.156151
1.000000 0.000000 0.104498
1.000000 0.000000 0.000000
0.000000 0.503055 0.106551
0.000000 0.497574 0.103570
0.485541 0.472271 0.089530
1.000000 0.336759 0.020230
1.000000 0.000000 0.000000
0.000000 1.000000 0.000000
0.000000 1.000000 0.000000
0.000000 1.000000 0.000000
1.000000 1.000000 0.000000
1.000000 0.784989 0.000000
0.000000 1.000000 0.000000
0.000000 1.000000 0.000000
0.000000 1.000000 0.000000
0.000000 1.000000 0.000000
1.000000 1.000000 0.000000
0.000000 0.000000 0.500017
0.195303 0.000000 0.499217
0.602216 0.000000 0.495624
1.000000 0.000000 0.479219
1.000000 0.000000 0.397618
0.000000 0.176222 0.495568
0.122972 0.161559 0.494761
0.580461 0.077411 0.491135
1.000000 0.000000 0.474572
1.000000 0.000000 0.392011
0.000000 0.501418 0.475154
0.000000 0.495918 0.474312
0.470525 0.470525 0.470525
1.000000 0.334325 0.453202
1.000000 0.000000 0.365912
0.000000 1.000000 0.370341
0.000000 1.000000 0.369263
0.000000 1.000000 0.364402
1.000000 1.000000 0.341860
1.000000 0.783967 0.216630
0.000000 1.000000 0.000000
0.000000 1.000000 0.000000
0.000000 1.000000 0.000000
0.000000 1.000000 0.000000
1.000000 1.000000 0.000000
0.000000 0.000000 1.000000
0.000000 0.000000 1.000000
0.546619 0.000000 1.000000
1.000000 0.000000 1.000000
1.000000 0.000000 1.000000
0.000000 0.156325 1.000000
0.000000 0.140151 1.000000
0.522457 0.045544 1.000000
1.000000 0.000000 1.000000
1.000000 0.000000 1.000000
0.000000 0.494030 1.000000
0.000000 0.488446 1.000000
0.396459 0.462638 1.000000
1.000000 0.323229 1.000000
1.000000 0.000000 1.000000
0.000000 1.000000 1.000000
0.000000 1.000000 1.000000
0.000000 1.000000 1.000000
1.000000 1.000000 1.000000
1.000000 0.779376 1.000000
0.000000 1.000000 0.847968
0.000000 1.000000 0.847511
0.000000 1.000000 0.845465
0.000000 1.000000 0.836248
1.000000 1.000000 0.793594
0.000000 0.000000 1.000000
0.000000 0.000000 1.000000
0.128905 0.000000 1.000000
1.000000 0.000000 1.000000
1.000000 0.000000 1.000000
0.000000 0.033095 1.000000
0.000000 0.009327 1.000000
0.024285 0.000000 1.000000
1.000000 0.000000 1.000000
1.000000 0.000000 1.000000
0.000000 0.459519 1.000000
0.000000 0.453506 1.000000
0.000000 0.425573 1.000000
1.000000 0.268518 1.000000
1.000000 0.000000 1.000000
0.000000 1.000000 1.000000
0.000000 1.000000 1.000000
0.000000 1.000000 1.000000
0.897164 1.000000 1.000000
1.000000 0.758477 1.000000
0.000000 1.000000 1.000000
0.000000 1.000000 1.000000
0.000000 1.000000 1.000000
0.000000 1.000000 1.000000
1.000000 1.000000 1.000000
