assets/luts/Insta360_iLog_Rec2020_to_Rec709.cube
# Insta360 i-Log -> Rec.709 conversion -- APPROXIMATE
# Generated by scripts/generate-conversion-luts.mjs -- do not hand-edit.
# Insta360 publishes NO i-Log transfer function. Only the gamut is a published fact:
#   "10-bit I-Log with 14 stops of dynamic range" / "The color space of the I-Log final
#   video is Rec.2020"  --  Insta360 Luna Ultra online manual
#   https://onlinemanual.insta360.com/lunaultra/en-us/operation-tutorials/shooting-preview/shooting-specs/i-log
# The curve is MODELLED: normalized log family L = (B^v - 1)/(B - 1) with base B = 400 and
# 18% grey assumed at code value 0.46. See INSTA360_I_LOG in the generator for the full list
# of assumptions and how to recalibrate against a grey card.
# Treat this as a starting point, not a colorimetrically exact transform.
# Output  : ITU-R BT.709-6 OETF, clipped to [0,1].
TITLE "Insta360 i-Log to Rec.709 (approximate)"
LUT_3D_SIZE 33
DOMAIN_MIN 0.0 0.0 0.0
DOMAIN_MAX 1.0 1.0 1.0
0.000000 0.000000 0.000000
0.018791 0.000000 0.000000
0.041452 0.000000 0.000000
0.068779 0.000000 0.000000
0.100714 0.000000 0.000000
0.132661 0.000000 0.000000
0.165159 0.000000 0.000000
0.198790 0.000000 0.000000
0.234004 0.000000 0.000000
0.271188 0.000000 0.000000
0.310700 0.000000 0.000000
0.352886 0.000000 0.000000
0.398093 0.000000 0.000000
0.446676 0.000000 0.000000
0.499009 0.000000 0.000000
0.555483 0.000000 0.000000
0.616516 0.000000 0.000000
0.682555 0.000000 0.000000
0.754079 0.000000 0.000000
0.831604 0.000000 0.000000
0.915690 0.000000 0.000000
1.000000 0.000000 0.000000
1.000000 0.000000 0.000000
1.000000 0.000000 0.000000
1.000000 0.000000 0.000000
1.000000 0.000000 0.000000
1.000000 0.000000 0.000000
1.000000 0.000000 0.000000
1.000000 0.000000 0.000000
1.000000 0.000000 0.000000
1.000000 0.000000 0.000000
1.000000 0.000000 0.000000
1.000000 0.000000 0.000000
0.000000 0.012821 0.000000
0.012141 0.011411 0.000000
0.034802 0.009712 0.000000
0.062129 0.007662 0.000000
0.094730 0.005190 0.000000
0.127696 0.002209 0.000000
0.160944 0.000000 0.000000
0.195157 0.000000 0.000000
0.230840 0.000000 0.000000
0.268412 0.000000 0.000000
0.308250 0.000000 0.000000
0.350714 0.000000 0.000000
0.396161 0.000000 0.000000
0.444953 0.000000 0.000000
0.497469 0.000000 0.000000
0.554104 0.000000 0.000000
0.615280 0.000000 0.000000
0.681445 0.000000 0.000000
0.753082 0.000000 0.000000
0.830708 0.000000 0.000000
0.914884 0.000000 0.000000
1.000000 0.000000 0.000000
1.000000 0.000000 0.000000
1.000000 0.000000 0.000000
1.000000 0.000000 0.000000
1.000000 0.000000 0.000000
1.000000 0.000000 0.000000
1.000000 0.000000 0.000000
1.000000 0.000000 0.000000
1.000000 0.000000 0.000000
1.000000 0.000000 0.000000
1.000000 0.000000 0.000000
1.000000 0.000000 0.000000
0.000000 0.028281 0.000000
0.004122 0.026872 0.000000
0.026782 0.025172 0.000000
0.054109 0.023122 0.000000
0.087199 0.020651 0.000000
0.121525 0.017670 0.000000
0.155748 0.014075 0.000000
0.190703 0.009741 0.000000
0.226976 0.004514 0.000000
0.265030 0.000000 0.000000
0.305271 0.000000 0.000000
0.348078 0.000000 0.000000
0.393819 0.000000 0.000000
0.442866 0.000000 0.000000
0.495605 0.000000 0.000000
0.552437 0.000000 0.000000
0.613786 0.000000 0.000000
0.680105 0.000000 0.000000
0.751878 0.000000 0.000000
0.829626 0.000000 0.000000
0.913911 0.000000 0.000000
1.000000 0.000000 0.000000
1.000000 0.000000 0.000000
1.000000 0.000000 0.000000
1.000000 0.000000 0.000000
1.000000 0.000000 0.000000
1.000000 0.000000 0.000000
1.000000 0.000000 0.000000
1.000000 0.000000 0.000000
1.000000 0.000000 0.000000
1.000000 0.000000 0.000000
1.000000 0.000000 0.000000
1.000000 0.000000 0.000000
0.000000 0.046926 0.000000
0.000000 0.045516 0.000000
0.017112 0.043816 0.000000
0.044438 0.041767 0.000000
0.077392 0.039295 0.000000
0.113791 0.036314 0.000000
0.149303 0.032720 0.000000
0.185217 0.028385 0.000000
0.222239 0.023158 0.000000
0.260900 0.016854 0.000000
0.301643 0.009253 0.000000
0.344873 0.000086 0.000000
0.390976 0.000000 0.000000
0.440337 0.000000 0.000000
0.493348 0.000000 0.000000
0.550419 0.000000 0.000000
0.611979 0.000000 0.000000
0.678484 0.000000 0.000000
0.750423 0.000000 0.000000
0.828319 0.000000 0.000000
0.912736 0.000000 0.000000
1.000000 0.000000 0.000000
1.000000 0.000000 0.000000
1.000000 0.000000 0.000000
1.000000 0.000000 0.000000
1.000000 0.000000 0.000000
1.000000 0.000000 0.000000
1.000000 0.000000 0.000000
1.000000 0.000000 0.000000
1.000000 0.000000 0.000000
1.000000 0.000000 0.000000
1.000000 0.000000 0.000000
1.000000 0.000000 0.000000
0.000000 0.069409 0.000000
0.000000 0.067999 0.000000
0.005449 0.066300 0.000000
0.032776 0.064250 0.000000
0.065730 0.061778 0.000000
0.103982 0.058797 0.000000
0.141249 0.055203 0.000000
0.178425 0.050868 0.000000
0.216412 0.045641 0.000000
0.255841 0.039337 0.000000
0.297214 0.031736 0.000000
0.340970 0.022569 0.000000
0.387521 0.011515 0.000000
0.437267 0.000000 0.000000
0.490613 0.000000 0.000000
0.547975 0.000000 0.000000
0.609792 0.000000 0.000000
0.676525 0.000000 0.000000
0.748665 0.000000 0.000000
0.826740 0.000000 0.000000
0.911317 0.000000 0.000000
1.000000 0.000000 0.000000
1.000000 0.000000 0.000000
1.000000 0.000000 0.000000
1.000000 0.000000 0.000000
1.000000 0.000000 0.000000
1.000000 0.000000 0.000000
1.000000 0.000000 0.000000
1.000000 0.000000 0.000000
1.000000 0.000000 0.000000
1.000000 0.000000 0.000000
1.000000 0.000000 0.000000
1.000000 0.000000 0.000000
0.000000 0.096044 0.000000
0.000000 0.094757 0.000000
0.000000 0.093191 0.000000
0.018713 0.091282 0.000000
0.051666 0.088948 0.000000
0.091322 0.086085 0.000000
0.131074 0.082559 0.000000
0.169953 0.077981 0.000000
0.209204 0.072754 0.000000
0.249620 0.066450 0.000000
0.291790 0.058849 0.000000
0.336207 0.049682 0.000000
0.383315 0.038628 0.000000
0.433536 0.025297 0.000000
0.487293 0.009222 0.000000
0.545014 0.000000 0.000000
0.607144 0.000000 0.000000
0.674154 0.000000 0.000000
0.746539 0.000000 0.000000
0.824832 0.000000 0.000000
0.909602 0.000000 0.000000
1.000000 0.000000 0.000000
1.000000 0.000000 0.000000
1.000000 0.000000 0.000000
1.000000 0.000000 0.000000
1.000000 0.000000 0.000000
1.000000 0.000000 0.000000
1.000000 0.000000 0.000000
1.000000 0.000000 0.000000
1.000000 0.000000 0.000000
1.000000 0.000000 0.000000
1.000000 0.000000 0.000000
1.000000 0.000000 0.000000
0.000000 0.123406 0.000000
0.000000 0.122311 0.000000
0.000000 0.120981 0.000000
0.001753 0.119365 0.000000
0.034707 0.117396 0.000000
0.074446 0.114993 0.000000
0.118021 0.112050 0.000000
0.159282 0.108432 0.000000
0.200229 0.103965 0.000000
0.241933 0.098413 0.000000
0.285125 0.091452 0.000000
0.330377 0.082621 0.000000
0.378181 0.071323 0.000000
0.428994 0.057993 0.000000
0.483259 0.041918 0.000000
0.541420 0.022532 0.000000
0.603935 0.000000 0.000000
0.671282 0.000000 0.000000
0.743966 0.000000 0.000000
0.822524 0.000000 0.000000
0.907529 0.000000 0.000000
0.999600 0.000000 0.000000
1.000000 0.000000 0.000000
1.000000 0.000000 0.000000
1.000000 0.000000 0.000000
1.000000 0.000000 0.000000
1.000000 0.000000 0.000000
1.000000 0.000000 0.000000
1.000000 0.000000 0.000000
1.000000 0.000000 0.000000
1.000000 0.000000 0.000000
1.000000 0.000000 0.000000
1.000000 0.000000 0.000000
0.000000 0.151720 0.000000
0.000000 0.150775 0.000000
0.000000 0.149630 0.000000
0.000000 0.148239 0.000000
0.014256 0.146550 0.000000
0.053995 0.144494 0.000000
0.100876 0.141986 0.000000
0.145650 0.138919 0.000000
0.188948 0.135154 0.000000
0.232372 0.130513 0.000000
0.276895 0.124760 0.000000
0.323215 0.117571 0.000000
0.371900 0.108495 0.000000
0.423453 0.096859 0.000000
0.478348 0.081593 0.000000
0.537053 0.061960 0.000000
0.600041 0.038583 0.000000
0.667803 0.010393 0.000000
0.740851 0.000000 0.000000
0.819731 0.000000 0.000000
0.905023 0.000000 0.000000
0.997349 0.000000 0.000000
1.000000 0.000000 0.000000
1.000000 0.000000 0.000000
1.000000 0.000000 0.000000
1.000000 0.000000 0.000000
1.000000 0.000000 0.000000
1.000000 0.000000 0.000000
1.000000 0.000000 0.000000
1.000000 0.000000 0.000000
1.000000 0.000000 0.000000
1.000000 0.000000 0.000000
1.000000 0.000000 0.000000
0.000000 0.181368 0.000000
0.000000 0.180544 0.000000
0.000000 0.179546 0.000000
0.000000 0.178337 0.000000
0.000000 0.176871 0.000000
0.029332 0.175090 0.000000
0.077254 0.172923 0.000000
0.127863 0.170281 0.000000
0.174580 0.167053 0.000000
0.220374 0.163095 0.000000
0.266668 0.158222 0.000000
0.314376 0.152192 0.000000
0.364186 0.144677 0.000000
0.416673 0.135219 0.000000
0.472357 0.123153 0.000000
0.531737 0.107443 0.000000
0.595310 0.086298 0.000000
0.663580 0.057939 0.000000
0.737076 0.023944 0.000000
0.816350 0.000000 0.000000
0.901990 0.000000 0.000000
0.994626 0.000000 0.000000
1.000000 0.000000 0.000000
1.000000 0.000000 0.000000
1.000000 0.000000 0.000000
1.000000 0.000000 0.000000
1.000000 0.000000 0.000000
1.000000 0.000000 0.000000
1.000000 0.000000 0.000000
1.000000 0.000000 0.000000
1.000000 0.000000 0.000000
1.000000 0.000000 0.000000
1.000000 0.000000 0.000000
0.000000 0.212675 0.000000
0.000000 0.211951 0.000000
0.000000 0.211076 0.000000
0.000000 0.210016 0.000000
0.000000 0.208732 0.000000
0.000000 0.207175 0.000000
0.047513 0.205284 0.000000
0.103838 0.202984 0.000000
0.155923 0.200183 0.000000
0.205129 0.196761 0.000000
0.253849 0.192569 0.000000
0.303400 0.187414 0.000000
0.354670 0.181043 0.000000
0.408350 0.173115 0.000000
0.465029 0.163163 0.000000
0.525254 0.150511 0.000000
0.589551 0.134125 0.000000
0.658450 0.112268 0.000000
0.732495 0.081529 0.000000
0.812251 0.040286 0.000000
0.898318 0.000000 0.000000
0.991332 0.000000 0.000000
1.000000 0.000000 0.000000
1.000000 0.000000 0.000000
1.000000 0.000000 0.000000
1.000000 0.000000 0.000000
1.000000 0.000000 0.000000
1.000000 0.000000 0.000000
1.000000 0.000000 0.000000
1.000000 0.000000 0.000000
1.000000 0.000000 0.000000
1.000000 0.000000 0.000000
1.000000 0.000000 0.000000
0.000000 0.245942 0.000000
0.000000 0.245303 0.000000
0.000000 0.244530 0.000000
0.000000 0.243595 0.000000
0.000000 0.242464 0.000000
0.000000 0.241093 0.000000
0.011649 0.239432 0.000000
0.069438 0.237415 0.000000
0.130925 0.234962 0.000000
0.185402 0.231975 0.000000
0.237591 0.228329 0.000000
0.289656 0.223865 0.000000
0.342860 0.218379 0.000000
0.398085 0.211605 0.000000
0.456035 0.203189 0.000000
0.517324 0.192642 0.000000
0.582527 0.179268 0.000000
0.652207 0.162014 0.000000
0.726929 0.139146 0.000000
0.807279 0.107377 0.000000
0.893868 0.059993 0.000000
0.987343 0.000378 0.000000
1.000000 0.000000 0.000000
1.000000 0.000000 0.000000
1.000000 0.000000 0.000000
1.000000 0.000000 0.000000
1.000000 0.000000 0.000000
1.000000 0.000000 0.000000
1.000000 0.000000 0.000000
1.000000 0.000000 0.000000
1.000000 0.000000 0.000000
1.000000 0.000000 0.000000
1.000000 0.000000 0.000000
0.000000 0.281460 0.000000
0.000000 0.280893 0.000000
0.000000 0.280208 0.000000
0.000000 0.279380 0.000000
0.000000 0.278378 0.000000
0.000000 0.277166 0.000000
0.000000 0.275698 0.000000
0.026189 0.273918 0.000000
0.095457 0.271758 0.000000
0.159126 0.269132 0.000000
0.216608 0.265935 0.000000
0.272249 0.262033 0.000000
0.328084 0.257259 0.000000
0.385351 0.251395 0.000000
0.444945 0.244161 0.000000
0.507592 0.235180 0.000000
0.573938 0.223942 0.000000
0.644593 0.209720 0.000000
0.720156 0.191425 0.000000
0.801238 0.167292 0.000000
0.888469 0.134056 0.000000
0.982509 0.083983 0.000000
1.000000 0.011867 0.000000
1.000000 0.000000 0.000000
1.000000 0.000000 0.000000
1.000000 0.000000 0.000000
1.000000 0.000000 0.000000
1.000000 0.000000 0.000000
1.000000 0.000000 0.000000
1.000000 0.000000 0.000000
1.000000 0.000000 0.000000
1.000000 0.000000 0.000000
1.000000 0.000000 0.000000
0.000000 0.319521 0.000000
0.000000 0.319016 0.000000
0.000000 0.318407 0.000000
0.000000 0.317671 0.000000
0.000000 0.316781 0.000000
0.000000 0.315704 0.000000
0.000000 0.314402 0.000000
0.000000 0.312824 0.000000
0.043722 0.310912 0.000000
0.122274 0.308592 0.000000
0.188783 0.305772 0.000000
0.249830 0.302339 0.000000
0.309388 0.298151 0.000000
0.369430 0.293028 0.000000
0.431193 0.286739 0.000000
0.495596 0.278984 0.000000
0.563398 0.269365 0.000000
0.635282 0.257342 0.000000
0.711897 0.242148 0.000000
0.793887 0.222647 0.000000
0.881910 0.197015 0.000000
0.976645 0.161942 0.000000
1.000000 0.109892 0.000000
1.000000 0.025721 0.000000
1.000000 0.000000 0.000000
1.000000 0.000000 0.000000
1.000000 0.000000 0.000000
1.000000 0.000000 0.000000
1.000000 0.000000 0.000000
1.000000 0.000000 0.000000
1.000000 0.000000 0.000000
1.000000 0.000000 0.000000
1.000000 0.000000 0.000000
0.000000 0.360425 0.000000
0.000000 0.359975 0.000000
0.000000 0.359432 0.000000
0.000000 0.358775 0.000000
0.000000 0.357982 0.000000
0.000000 0.357024 0.000000
0.000000 0.355864 0.000000
0.000000 0.354461 0.000000
0.000000 0.352762 0.000000
0.064866 0.350703 0.000000
0.150084 0.348205 0.000000
0.220199 0.345169 0.000000
0.285350 0.341474 0.000000
0.349303 0.336967 0.000000
0.414007 0.331455 0.000000
0.480725 0.324692 0.000000
0.550409 0.316355 0.000000
0.623858 0.306023 0.000000
0.701797 0.293117 0.000000
0.784923 0.276827 0.000000
0.873928 0.255957 0.000000
0.969520 0.228599 0.000000
1.000000 0.191349 0.000000
1.000000 0.136672 0.000000
1.000000 0.042429 0.000000
1.000000 0.000000 0.000000
1.000000 0.000000 0.000000
1.000000 0.000000 0.000000
1.000000 0.000000 0.000000
1.000000 0.000000 0.000000
1.000000 0.000000 0.000000
1.000000 0.000000 0.000000
1.000000 0.000000 0.000000
0.000000 0.404486 0.000000
0.000000 0.404084 0.000000
0.000000 0.403598 0.000000
0.000000 0.403011 0.000000
0.000000 0.402303 0.000000
0.000000 0.401447 0.000000
0.000000 0.400413 0.000000
0.000000 0.399162 0.000000
0.000000 0.397648 0.000000
0.000000 0.395815 0.000000
0.090343 0.393593 0.000000
0.179247 0.390898 0.000000
0.253662 0.387623 0.000000
0.323457 0.383638 0.000000
0.392297 0.378778 0.000000
0.462148 0.372836 0.000000
0.534311 0.365546 0.000000
0.609782 0.356565 0.000000
0.689407 0.345439 0.000000
0.773963 0.331551 0.000000
0.864194 0.314038 0.000000
0.960850 0.291631 0.000000
1.000000 0.262323 0.000000
1.000000 0.222566 0.000000
1.000000 0.164690 0.000000
1.000000 0.062576 0.000000
1.000000 0.000000 0.000000
1.000000 0.000000 0.000000
1.000000 0.000000 0.000000
1.000000 0.000000 0.000000
1.000000 0.000000 0.000000
1.000000 0.000000 0.000000
1.000000 0.000000 0.000000
0.000000 0.452034 0.000000
0.000000 0.451673 0.000000
0.000000 0.451239 0.000000
0.000000 0.450714 0.000000
0.000000 0.450080 0.000000
0.000000 0.449314 0.000000
0.000000 0.448389 0.000000
0.000000 0.447271 0.000000
0.000000 0.445919 0.000000
0.000000 0.444283 0.000000
0.000000 0.442302 0.000000
0.117016 0.439902 0.000000
0.210076 0.436990 0.000000
0.289456 0.433452 0.000000
0.364446 0.429147 0.000000
0.438693 0.423898 0.000000
0.514206 0.417481 0.000000
0.592339 0.409611 0.000000
0.674142 0.399918 0.000000
0.760518 0.387914 0.000000
0.852295 0.372939 0.000000
0.950278 0.354070 0.000000
1.000000 0.329953 0.000000
1.000000 0.298461 0.000000
1.000000 0.255870 0.000000
1.000000 0.194259 0.000000
1.000000 0.087016 0.000000
1.000000 0.000000 0.000000
1.000000 0.000000 0.000000
1.000000 0.000000 0.000000
1.000000 0.000000 0.000000
1.000000 0.000000 0.000000
1.000000 0.000000 0.000000
0.000000 0.503420 0.000000
0.000000 0.503097 0.000000
0.000000 0.502707 0.000000
0.000000 0.502236 0.000000
0.000000 0.501668 0.000000
0.000000 0.500982 0.000000
0.000000 0.500154 0.000000
0.000000 0.499153 0.000000
0.000000 0.497943 0.000000
0.000000 0.496480 0.000000
0.000000 0.494710 0.000000
0.010818 0.492567 0.000000
0.144604 0.489970 0.000000
0.242863 0.486820 0.000000
0.327868 0.482993 0.000000
0.408630 0.478337 0.000000
0.488835 0.472660 0.000000
0.570561 0.465722 0.000000
0.655229 0.457213 0.000000
0.743954 0.446737 0.000000
0.837698 0.433766 0.000000
0.937354 0.417593 0.000000
1.000000 0.397225 0.000000
1.000000 0.371216 0.000000
1.000000 0.337301 0.000000
1.000000 0.291538 0.000000
1.000000 0.225664 0.000000
1.000000 0.113006 0.000000
1.000000 0.000000 0.000000
1.000000 0.000000 0.000000
1.000000 0.000000 0.000000
1.000000 0.000000 0.000000
1.000000 0.000000 0.000000
0.000000 0.559020 0.000000
0.000000 0.558730 0.000000
0.000000 0.558380 0.000000
0.000000 0.557958 0.000000
0.000000 0.557448 0.000000
0.000000 0.556833 0.000000
0.000000 0.556090 0.000000
0.000000 0.555192 0.000000
0.000000 0.554108 0.000000
0.000000 0.552798 0.000000
0.000000 0.551214 0.000000
0.000000 0.549297 0.000000
0.025187 0.546976 0.000000
0.173480 0.544164 0.000000
0.277890 0.540752 0.000000
0.369197 0.536609 0.000000
0.456337 0.531567 0.000000
0.543089 0.525422 0.000000
0.631622 0.517911 0.000000
0.723435 0.508702 0.000000
0.819718 0.497365 0.000000
0.921502 0.483333 0.000000
1.000000 0.465842 0.000000
1.000000 0.443826 0.000000
1.000000 0.415733 0.000000
1.000000 0.379138 0.000000
1.000000 0.329853 0.000000
1.000000 0.259183 0.000000
1.000000 0.139915 0.000000
1.000000 0.000000 0.000000
1.000000 0.000000 0.000000
1.000000 0.000000 0.000000
1.000000 0.000000 0.000000
0.000000 0.619239 0.000000
0.000000 0.618978 0.000000
0.000000 0.618664 0.000000
0.000000 0.618284 0.000000
0.000000 0.617827 0.000000
0.000000 0.617274 0.000000
0.000000 0.616607 0.000000
0.000000 0.615802 0.000000
0.000000 0.614829 0.000000
0.000000 0.613654 0.000000
0.000000 0.612234 0.000000
0.000000 0.610517 0.000000
0.000000 0.608439 0.000000
0.042514 0.605924 0.000000
0.203963 0.602876 0.000000
0.315445 0.599178 0.000000
0.413757 0.594688 0.000000
0.507920 0.589225 0.000000
0.601850 0.582565 0.000000
0.697827 0.574428 0.000000
0.797446 0.564452 0.000000
0.901976 0.552172 0.000000
1.000000 0.536977 0.000000
1.000000 0.518041 0.000000
1.000000 0.494216 0.000000
1.000000 0.463831 0.000000
1.000000 0.424287 0.000000
1.000000 0.371108 0.000000
1.000000 0.295092 0.000000
1.000000 0.168101 0.000000
1.000000 0.000000 0.000000
1.000000 0.000000 0.000000
1.000000 0.000000 0.000000
0.000000 0.684511 0.000000
0.000000 0.684276 0.000000
0.000000 0.683994 0.000000
0.000000 0.683653 0.000000
0.000000 0.683241 0.000000
0.000000 0.682745 0.000000
0.000000 0.682145 0.000000
0.000000 0.681422 0.000000
0.000000 0.680548 0.000000
0.000000 0.679493 0.000000
0.000000 0.678219 0.000000
0.000000 0.676678 0.000000
0.000000 0.674816 0.000000
0.000000 0.672563 0.000000
0.063410 0.669834 0.000000
0.236348 0.666529 0.000000
0.355820 0.662519 0.000000
0.461877 0.657649 0.000000
0.563753 0.651725 0.000000
0.665542 0.644505 0.000000
0.769654 0.635681 0.000000
0.877792 0.624866 0.000000
0.991316 0.611555 0.000000
1.000000 0.595087 0.000000
1.000000 0.574569 0.000000
1.000000 0.548762 0.000000
1.000000 0.515864 0.000000
1.000000 0.473081 0.000000
1.000000 0.415616 0.000000
1.000000 0.333676 0.000000
1.000000 0.197872 0.000000
1.000000 0.000000 0.000000
1.000000 0.000000 0.000000
0.000000 0.755306 0.000000
0.000000 0.755095 0.000000
0.000000 0.754841 0.000000
0.000000 0.754534 0.000000
0.000000 0.754164 0.000000
0.000000 0.753717 0.000000
0.000000 0.753178 0.000000
0.000000 0.752528 0.000000
0.000000 0.751743 0.000000
0.000000 0.750795 0.000000
0.000000 0.749650 0.000000
0.000000 0.748267 0.000000
0.000000 0.746595 0.000000
0.000000 0.744574 0.000000
0.000000 0.742129 0.000000
0.088678 0.739168 0.000000
0.270920 0.735581 0.000000
0.399325 0.731231 0.000000
0.513913 0.725947 0.000000
0.624242 0.719519 0.000000
0.734623 0.711685 0.000000
0.847618 0.702113 0.000000
0.965047 0.690380 0.000000
1.000000 0.675942 0.000000
1.000000 0.658082 0.000000
1.000000 0.635834 0.000000
1.000000 0.607859 0.000000
1.000000 0.572211 0.000000
1.000000 0.525877 0.000000
1.000000 0.463705 0.000000
1.000000 0.375230 0.000000
1.000000 0.229512 0.000000
1.000000 0.000000 0.000000
0.000000 0.832132 0.000000
0.000000 0.831942 0.000000
0.000000 0.831713 0.000000
0.000000 0.831437 0.000000
0.000000 0.831104 0.000000
0.000000 0.830702 0.000000
0.000000 0.830218 0.000000
0.000000 0.829632 0.000000
0.000000 0.828926 0.000000
0.000000 0.828074 0.000000
0.000000 0.827045 0.000000
0.000000 0.825802 0.000000
0.000000 0.824300 0.000000
0.000000 0.822485 0.000000
0.000000 0.820291 0.000000
0.000000 0.817636 0.000000
0.115308 0.814423 0.000000
0.307962 0.810529 0.000000
0.446285 0.805805 0.000000
0.570244 0.800069 0.000000
0.689824 0.793092 0.000000
0.809589 0.784588 0.000000
0.932275 0.774199 0.000000
1.000000 0.761465 0.000000
1.000000 0.745797 0.000000
1.000000 0.726416 0.000000
1.000000 0.702279 0.000000
1.000000 0.671934 0.000000
1.000000 0.633278 0.000000
1.000000 0.583059 0.000000
1.000000 0.515728 0.000000
1.000000 0.420066 0.000000
1.000000 0.263299 0.000000
0.000000 0.915539 0.000000
0.000000 0.915368 0.000000
0.000000 0.915162 0.000000
0.000000 0.914914 0.000000
0.000000 0.914614 0.000000
0.000000 0.914252 0.000000
0.000000 0.913816 0.000000
0.000000 0.913289 0.000000
0.000000 0.912654 0.000000
0.000000 0.911887 0.000000
0.000000 0.910961 0.000000
0.000000 0.909843 0.000000
0.000000 0.908494 0.000000
0.000000 0.906863 0.000000
0.000000 0.904892 0.000000
0.000000 0.902509 0.000000
0.000000 0.899626 0.000000
0.142826 0.896135 0.000000
0.347768 0.891906 0.000000
0.497045 0.886777 0.000000
0.631278 0.880548 0.000000
0.760970 0.872971 0.000000
0.890977 0.863737 0.000000
1.000000 0.852455 0.000000
1.000000 0.838630 0.000000
1.000000 0.821618 0.000000
1.000000 0.800579 0.000000
1.000000 0.774379 0.000000
1.000000 0.741446 0.000000
1.000000 0.699505 0.000000
1.000000 0.645039 0.000000
1.000000 0.572063 0.000000
1.000000 0.468517 0.000000
0.000000 1.000000 0.000000
0.000000 1.000000 0.000000
0.000000 1.000000 0.000000
0.000000 1.000000 0.000000
0.000000 1.000000 0.000000
0.000000 1.000000 0.000000
0.000000 1.000000 0.000000
0.000000 1.000000 0.000000
0.000000 1.000000 0.000000
0.000000 1.000000 0.000000
0.000000 1.000000 0.000000
0.000000 1.000000 0.000000
0.000000 0.999782 0.000000
0.000000 0.998316 0.000000
0.000000 0.996544 0.000000
0.000000 0.994403 0.000000
0.000000 0.991814 0.000000
0.000000 0.988682 0.000000
0.171610 0.984890 0.000000
0.390642 0.980296 0.000000
0.551978 0.974724 0.000000
0.697455 0.967957 0.000000
0.838189 0.959727 0.000000
0.979369 0.949697 0.000000
1.000000 0.937443 0.000000
1.000000 0.922426 0.000000
1.000000 0.903950 0.000000
1.000000 0.881101 0.000000
1.000000 0.852651 0.000000
1.000000 0.816896 0.000000
1.000000 0.771368 0.000000
1.000000 0.712265 0.000000
1.000000 0.633117 0.000000
0.000000 1.000000 0.000000
0.000000 1.000000 0.000000
0.000000 1.000000 0.000000
0.000000 1.000000 0.000000
0.000000 1.000000 0.000000
0.000000 1.000000 0.000000
0.000000 1.000000 0.000000
0.000000 1.000000 0.000000
0.000000 1.000000 0.000000
0.000000 1.000000 0.000000
0.000000 1.000000 0.000000
0.000000 1.000000 0.000000
0.000000 1.000000 0.000000
0.000000 1.000000 0.000000
0.000000 1.000000 0.000000
0.000000 1.000000 0.000000
0.000000 1.000000 0.000000
0.000000 1.000000 0.000000
0.000000 1.000000 0.000000
0.201983 1.000000 0.000000
0.436906 1.000000 0.000000
0.611482 1.000000 0.000000
0.769250 1.000000 0.000000
0.922035 1.000000 0.000000
1.000000 1.000000 0.000000
1.000000 1.000000 0.000000
1.000000 1.000000 0.000000
1.000000 0.993380 0.000000
1.000000 0.968559 0.000000
1.000000 0.937655 0.000000
1.000000 0.898821 0.000000
1.000000 0.849382 0.000000
1.000000 0.785218 0.000000
0.000000 1.000000 0.000000
0.000000 1.000000 0.000000
0.000000 1.000000 0.000000
0.000000 1.000000 0.000000
0.000000 1.000000 0.000000
0.000000 1.000000 0.000000
0.000000 1.000000 0.000000
0.000000 1.000000 0.000000
0.000000 1.000000 0.000000
0.000000 1.000000 0.000000
0.000000 1.000000 0.000000
0.000000 1.000000 0.000000
0.000000 1.000000 0.000000
0.000000 1.000000 0.000000
0.000000 1.000000 0.000000
0.000000 1.000000 0.000000
0.000000 1.000000 0.000000
0.000000 1.000000 0.000000
0.000000 1.000000 0.000000
0.000000 1.000000 0.000000
0.234240 1.000000 0.000000
0.486903 1.000000 0.000000
0.675986 1.000000 0.000000
0.847178 1.000000 0.000000
1.000000 1.000000 0.000000
1.000000 1.000000 0.000000
1.000000 1.000000 0.000000
1.000000 1.000000 0.000000
