assets/luts/Insta360_iLog_Rec2020_to_Rec709.cube
# Insta360 i-Log -> Rec.709 conversion -- APPROXIMATE
# Generated by scripts/generate-conversion-luts.mjs -- do not hand-edit.
# Insta360 publishes NO i-Log transfer function. Only the gamut is a published fact:
#   "10-bit I-Log with 14 stops of dynamic range" / "The color space of the I-Log final
#   video is Rec.2020"  --  Insta360 Luna Ultra online manual
#   https://onlinemanual.insta360.com/lunaultra/en-us/operation-tutorials/shooting-preview/shooting-specs/i-log
# The curve is MODELLED: normalized log family L = (B^v - 1)/(B - 1) with base B = 400 and
# 18% grey assumed at code value 0.46. See INSTA360_I_LOG in the generator for the full list
# of assumptions and how to recalibrate against a grey card.
# Treat this as a starting point, not a colorimetrically exact transform.
# Output  : ITU-R BT.709-6 OETF, clipped to [0,1].
TITLE "Insta360 i-Log to Rec.709 (approximate)"
LUT_3D_SIZE 9
DOMAIN_MIN 0.0 0.0 0.0
DOMAIN_MAX 1.0 1.0 1.0
0.000000 0.000000 0.000000
0.100714 0.000000 0.000000
0.234004 0.000000 0.000000
0.398093 0.000000 0.000000
0.616516 0.000000 0.000000
0.915690 0.000000 0.000000
1.000000 0.000000 0.000000
1.000000 0.000000 0.000000
1.000000 0.000000 0.000000
0.000000 0.069409 0.000000
0.065730 0.061778 0.000000
0.216412 0.045641 0.000000
0.387521 0.011515 0.000000
0.609792 0.000000 0.000000
0.911317 0.000000 0.000000
1.000000 0.000000 0.000000
1.000000 0.000000 0.000000
1.000000 0.000000 0.000000
0.000000 0.181368 0.000000
0.000000 0.176871 0.000000
0.174580 0.167053 0.000000
0.364186 0.144677 0.000000
0.595310 0.086298 0.000000
0.901990 0.000000 0.000000
1.000000 0.000000 0.000000
1.000000 0.000000 0.000000
1.000000 0.000000 0.000000
0.000000 0.319521 0.000000
0.000000 0.316781 0.000000
0.043722 0.310912 0.000000
0.309388 0.298151 0.000000
0.563398 0.269365 0.000000
0.881910 0.197015 0.000000
1.000000 0.000000 0.000000
1.000000 0.000000 0.000000
1.000000 0.000000 0.000000
0.000000 0.503420 0.000000
0.000000 0.501668 0.000000
0.000000 0.497943 0.000000
0.144604 0.489970 0.000000
0.488835 0.472660 0.000000
0.837698 0.433766 0.000000
1.000000 0.337301 0.000000
1.000000 0.000000 0.000000
1.000000 0.000000 0.000000
0.000000 0.755306 0.000000
0.000000 0.754164 0.000000
0.000000 0.751743 0.000000
0.000000 0.746595 0.000000
0.270920 0.735581 0.000000
0.734623 0.711685 0.000000
1.000000 0.658082 0.000000
1.000000 0.525877 0.000000
1.000000 0.000000 0.000000
0.000000 1.000000 0.000000
0.000000 1.000000 0.000000
0.000000 1.000000 0.000000
0.000000 1.000000 0.000000
0.000000 1.000000 0.000000
0.436906 1.000000 0.000000
1.000000 1.000000 0.000000
1.000000 0.968559 0.000000
1.000000 0.785218 0.000000
0.000000 1.000000 0.000000
0.000000 1.000000 0.000000
0.000000 1.000000 0.000000
0.000000 1.000000 0.000000
0.000000 1.000000 0.000000
0.000000 1.000000 0.000000
0.663084 1.000000 0.000000
1.000000 1.000000 0.000000
1.000000 1.000000 0.000000
0.000000 1.000000 0.000000
0.000000 1.000000 0.000000
0.000000 1.000000 0.000000
0.000000 1.000000 0.000000
0.000000 1.000000 0.000000
0.000000 1.000000 0.000000
0.000000 1.000000 0.000000
0.975956 1.000000 0.000000
1.000000 1.000000 0.000000
0.000000 0.000000 0.068541
0.096723 0.000000 0.067429
0.231885 0.000000 0.065077
0.396797 0.000000 0.060104
0.615687 0.000000 0.049587
0.915149 0.000000 0.027346
1.000000 0.000000 0.000000
1.000000 0.000000 0.000000
1.000000 0.000000 0.000000
0.000000 0.068897 0.062379
0.061267 0.061267 0.061267
0.214146 0.045129 0.058915
0.386191 0.011004 0.053942
0.608953 0.000000 0.043425
0.910773 0.000000 0.021184
1.000000 0.000000 0.000000
1.000000 0.000000 0.000000
1.000000 0.000000 0.000000
0.000000 0.181069 0.049347
0.000000 0.176566 0.048235
0.171880 0.166734 0.045884
0.362774 0.144322 0.040910
0.594449 0.085802 0.030393
0.901440 0.000000 0.008153
1.000000 0.000000 0.000000
1.000000 0.000000 0.000000
1.000000 0.000000 0.000000
0.000000 0.319338 0.021789
0.000000 0.316596 0.020677
0.039259 0.310725 0.018326
0.307740 0.297956 0.013353
0.562487 0.269151 0.002836
0.881346 0.196735 0.000000
1.000000 0.000000 0.000000
1.000000 0.000000 0.000000
1.000000 0.000000 0.000000
0.000000 0.503303 0.000000
0.000000 0.501550 0.000000
0.000000 0.497824 0.000000
0.141486 0.489850 0.000000
0.487780 0.472535 0.000000
0.837102 0.433630 0.000000
1.000000 0.337127 0.000000
1.000000 0.000000 0.000000
1.000000 0.000000 0.000000
0.000000 0.755229 0.000000
0.000000 0.754087 0.000000
0.000000 0.751666 0.000000
0.000000 0.746518 0.000000
0.269058 0.735503 0.000000
0.733935 0.711603 0.000000
1.000000 0.657993 0.000000
1.000000 0.525765 0.000000
1.000000 0.000000 0.000000
0.000000 1.000000 0.000000
0.000000 1.000000 0.000000
0.000000 1.000000 0.000000
0.000000 1.000000 0.000000
0.000000 1.000000 0.000000
0.435725 1.000000 0.000000
1.000000 1.000000 0.000000
1.000000 0.968500 0.000000
1.000000 0.785145 0.000000
0.000000 1.000000 0.000000
0.000000 1.000000 0.000000
0.000000 1.000000 0.000000
0.000000 1.000000 0.000000
0.000000 1.000000 0.000000
0.000000 1.000000 0.000000
0.662317 1.000000 0.000000
1.000000 1.000000 0.000000
1.000000 1.000000 0.000000
0.000000 1.000000 0.000000
0.000000 1.000000 0.000000
0.000000 1.000000 0.000000
0.000000 1.000000 0.000000
0.000000 1.000000 0.000000
0.000000 1.000000 0.000000
0.000000 1.000000 0.000000
0.975452 1.000000 0.000000
1.000000 1.000000 0.000000
0.000000 0.000000 0.179785
0.087936 0.000000 0.179130
0.227348 0.000000 0.177740
0.394043 0.000000 0.174772
0.613929 0.000000 0.168361
0.914004 0.000000 0.154146
1.000000 0.000000 0.120314
1.000000 0.000000 0.025795
1.000000 0.000000 0.000000
0.000000 0.067816 0.176134
0.051828 0.060185 0.175469
0.209288 0.044048 0.174056
0.383363 0.009922 0.171038
0.607175 0.000000 0.164517
0.909622 0.000000 0.150031
1.000000 0.000000 0.115391
1.000000 0.000000 0.019633
1.000000 0.000000 0.000000
0.000000 0.180436 0.168213
0.000000 0.175920 0.167524
0.166059 0.166059 0.166059
0.359768 0.143570 0.162928
0.592625 0.084747 0.156151
0.900276 0.000000 0.141043
1.000000 0.000000 0.104498
1.000000 0.000000 0.006602
1.000000 0.000000 0.000000
0.000000 0.318950 0.150439
0.000000 0.316206 0.149689
0.029820 0.310327 0.148094
0.304225 0.297543 0.144678
0.560554 0.268699 0.137255
0.880152 0.196143 0.120536
1.000000 0.000000 0.078507
1.000000 0.000000 0.000000
1.000000 0.000000 0.000000
0.000000 0.503055 0.106551
0.000000 0.501302 0.105600
0.000000 0.497574 0.103570
0.134726 0.489595 0.099195
0.485541 0.472271 0.089530
0.835839 0.433342 0.067263
1.000000 0.336759 0.020230
1.000000 0.000000 0.000000
1.000000 0.000000 0.000000
0.000000 0.755067 0.000000
0.000000 0.753925 0.000000
0.000000 0.751503 0.000000
0.000000 0.746354 0.000000
0.265082 0.735336 0.000000
0.732478 0.711431 0.000000
1.000000 0.657806 0.000000
1.000000 0.525528 0.000000
1.000000 0.000000 0.000000
0.000000 1.000000 0.000000
0.000000 1.000000 0.000000
0.000000 1.000000 0.000000
0.000000 1.000000 0.000000
0.000000 1.000000 0.000000
0.433216 1.000000 0.000000
1.000000 1.000000 0.000000
1.000000 0.968377 0.000000
1.000000 0.784989 0.000000
0.000000 1.000000 0.000000
0.000000 1.000000 0.000000
0.000000 1.000000 0.000000
0.000000 1.000000 0.000000
0.000000 1.000000 0.000000
0.000000 1.000000 0.000000
0.660690 1.000000 0.000000
1.000000 1.000000 0.000000
1.000000 1.000000 0.000000
0.000000 1.000000 0.000000
0.000000 1.000000 0.000000
0.000000 1.000000 0.000000
0.000000 1.000000 0.000000
0.000000 1.000000 0.000000
0.000000 1.000000 0.000000
0.000000 1.000000 0.000000
0.974385 1.000000 0.000000
1.000000 1.000000 0.000000
0.000000 0.000000 0.317157
0.067870 0.000000 0.316756
0.217491 0.000000 0.315907
0.388158 0.000000 0.314105
0.610194 0.000000 0.310261
0.911577 0.000000 0.301985
1.000000 0.000000 0.283755
1.000000 0.000000 0.241214
1.000000 0.000000 0.117711
0.000000 0.065528 0.314931
0.031868 0.057897 0.314527
0.198694 0.041760 0.313673
0.377315 0.007634 0.311858
0.603396 0.000000 0.307989
0.907182 0.000000 0.299654
1.000000 0.000000 0.281287
1.000000 0.000000 0.238360
1.000000 0.000000 0.112714
0.000000 0.179092 0.310173
0.000000 0.174549 0.309764
0.153203 0.164624 0.308897
0.353332 0.141970 0.307057
0.588748 0.082493 0.303131
0.897808 0.000000 0.294670
1.000000 0.000000 0.276003
1.000000 0.000000 0.232227
1.000000 0.000000 0.101642
0.000000 0.318130 0.299884
0.000000 0.315379 0.299462
0.009860 0.309486 0.298567
0.296668 0.296668 0.296668
0.556444 0.267739 0.292614
0.877622 0.194886 0.283868
1.000000 0.000000 0.264517
1.000000 0.000000 0.218776
1.000000 0.000000 0.075228
0.000000 0.502530 0.276980
0.000000 0.500775 0.276526
0.000000 0.497043 0.275564
0.119579 0.489055 0.273521
0.480772 0.471711 0.269153
0.833161 0.432732 0.259701
1.000000 0.335979 0.238638
1.000000 0.000000 0.187756
1.000000 0.000000 0.016950
0.000000 0.754725 0.221848
0.000000 0.753582 0.221297
0.000000 0.751159 0.220128
0.000000 0.746007 0.217639
0.256494 0.734984 0.212294
0.729386 0.711066 0.200605
1.000000 0.657409 0.173845
1.000000 0.525026 0.102746
1.000000 0.000000 0.000000
0.000000 1.000000 0.031112
0.000000 1.000000 0.030000
0.000000 1.000000 0.027649
0.000000 1.000000 0.022676
0.000000 1.000000 0.012159
0.427861 1.000000 0.000000
1.000000 1.000000 0.000000
1.000000 0.968117 0.000000
1.000000 0.784661 0.000000
0.000000 1.000000 0.000000
0.000000 1.000000 0.000000
0.000000 1.000000 0.000000
0.000000 1.000000 0.000000
0.000000 1.000000 0.000000
0.000000 1.000000 0.000000
0.657235 1.000000 0.000000
1.000000 1.000000 0.000000
1.000000 1.000000 0.000000
0.000000 1.000000 0.000000
0.000000 1.000000 0.000000
0.000000 1.000000 0.000000
0.000000 1.000000 0.000000
0.000000 1.000000 0.000000
0.000000 1.000000 0.000000
0.000000 1.000000 0.000000
0.972124 1.000000 0.000000
1.000000 1.000000 0.000000
0.000000 0.000000 0.500017
0.025659 0.000000 0.499761
0.195303 0.000000 0.499217
0.375415 0.000000 0.498067
0.602216 0.000000 0.495624
0.906421 0.000000 0.490418
1.000000 0.000000 0.479219
1.000000 0.000000 0.454619
1.000000 0.000000 0.397618
0.000000 0.060690 0.498593
0.000000 0.053059 0.498336
0.174619 0.036922 0.497791
0.364206 0.002796 0.496637
0.595322 0.000000 0.494187
0.901998 0.000000 0.488966
1.000000 0.000000 0.477732
1.000000 0.000000 0.453050
1.000000 0.000000 0.395826
0.000000 0.176222 0.495568
0.000000 0.171620 0.495309
0.122972 0.161559 0.494761
0.339339 0.138543 0.493600
0.580461 0.077411 0.491135
0.892565 0.000000 0.485880
1.000000 0.000000 0.474572
1.000000 0.000000 0.449716
1.000000 0.000000 0.392011
0.000000 0.316388 0.489109
0.000000 0.313623 0.488846
0.000000 0.307698 0.488291
0.280075 0.294809 0.487114
0.547647 0.265698 0.484615
0.872245 0.192205 0.479287
1.000000 0.000000 0.467819
1.000000 0.000000 0.442581
1.000000 0.000000 0.383819
0.000000 0.501418 0.475154
0.000000 0.499659 0.474884
0.000000 0.495918 0.474312
0.082363 0.487912 0.473099
0.470525 0.470525 0.470525
0.827466 0.431438 0.465035
1.000000 0.334325 0.453202
1.000000 0.000000 0.427101
1.000000 0.000000 0.365912
0.000000 0.754001 0.444188
0.000000 0.752857 0.443899
0.000000 0.750431 0.443287
0.000000 0.745274 0.441989
0.237443 0.734239 0.439232
0.722800 0.710293 0.433344
1.000000 0.656569 0.420622
1.000000 0.523963 0.392382
1.000000 0.000000 0.324960
0.000000 1.000000 0.370341
0.000000 1.000000 0.369995
0.000000 1.000000 0.369263
0.000000 1.000000 0.367709
0.000000 1.000000 0.364402
0.416312 1.000000 0.357313
1.000000 1.000000 0.341860
1.000000 0.967565 0.306782
1.000000 0.783967 0.216630
0.000000 1.000000 0.122596
0.000000 1.000000 0.121728
0.000000 1.000000 0.119881
0.000000 1.000000 0.115909
0.000000 1.000000 0.107199
0.000000 1.000000 0.087118
0.649866 1.000000 0.039946
1.000000 1.000000 0.000000
1.000000 1.000000 0.000000
0.000000 1.000000 0.000000
0.000000 1.000000 0.000000
0.000000 1.000000 0.000000
0.000000 1.000000 0.000000
0.000000 1.000000 0.000000
0.000000 1.000000 0.000000
0.000000 1.000000 0.000000
0.967324 1.000000 0.000000
1.000000 1.000000 0.000000
0.000000 0.000000 0.750480
0.000000 0.000000 0.750313
0.139935 0.000000 0.749959
0.346989 0.000000 0.749209
0.584967 0.000000 0.747621
0.895410 0.000000 0.744250
1.000000 0.000000 0.737068
1.000000 0.000000 0.721625
1.000000 0.000000 0.687739
0.000000 0.050459 0.749552
0.000000 0.042828 0.749384
0.112477 0.026691 0.749030
0.334874 0.000000 0.748279
0.577858 0.000000 0.746689
0.890927 0.000000 0.743314
1.000000 0.000000 0.736121
1.000000 0.000000 0.720657
1.000000 0.000000 0.686719
0.000000 0.170030 0.747585
0.000000 0.165296 0.747417
0.039393 0.154926 0.747061
0.307789 0.131089 0.746308
0.562514 0.067180 0.744713
0.881363 0.000000 0.741328
1.000000 0.000000 0.734115
1.000000 0.000000 0.718604
1.000000 0.000000 0.684557
0.000000 0.312675 0.743406
0.000000 0.309879 0.743237
0.000000 0.303887 0.742879
0.241686 0.290844 0.742121
0.528545 0.261337 0.740517
0.860752 0.186436 0.737111
1.000000 0.000000 0.729853
1.000000 0.000000 0.714242
1.000000 0.000000 0.679961
0.000000 0.499058 0.734484
0.000000 0.497291 0.734313
0.000000 0.493532 0.733950
0.000000 0.485486 0.733183
0.448078 0.468008 0.731557
0.815281 0.428691 0.728106
1.000000 0.330801 0.720750
1.000000 0.000000 0.704923
1.000000 0.000000 0.670131
0.000000 0.752467 0.715221
0.000000 0.751320 0.715045
0.000000 0.748889 0.714672
0.000000 0.743720 0.713882
0.192052 0.732660 0.712209
0.708657 0.708657 0.708657
1.000000 0.654789 0.701082
1.000000 0.521707 0.684767
1.000000 0.000000 0.648820
0.000000 1.000000 0.672534
0.000000 1.000000 0.672345
0.000000 1.000000 0.671947
0.000000 1.000000 0.671103
0.000000 1.000000 0.669316
0.390785 1.000000 0.665519
1.000000 1.000000 0.657412
1.000000 0.966398 0.639908
1.000000 0.782496 0.601116
0.000000 1.000000 0.571133
0.000000 1.000000 0.570909
0.000000 1.000000 0.570436
0.000000 1.000000 0.569433
0.000000 1.000000 0.567307
0.000000 1.000000 0.562782
0.633982 1.000000 0.553087
1.000000 1.000000 0.531982
1.000000 1.000000 0.484242
0.000000 1.000000 0.241726
0.000000 1.000000 0.241214
0.000000 1.000000 0.240129
0.000000 1.000000 0.237819
0.000000 1.000000 0.232870
0.000000 1.000000 0.222095
0.000000 1.000000 0.197715
0.957085 1.000000 0.135782
1.000000 1.000000 0.000000
0.000000 0.000000 1.000000
0.000000 0.000000 1.000000
0.000000 0.000000 1.000000
0.278095 0.000000 1.000000
0.546619 0.000000 1.000000
0.871620 0.000000 1.000000
1.000000 0.000000 1.000000
1.000000 0.000000 1.000000
1.000000 0.000000 1.000000
0.000000 0.028824 1.000000
0.000000 0.021193 1.000000
0.000000 0.005056 1.000000
0.263107 0.000000 1.000000
0.538983 0.000000 1.000000
0.867001 0.000000 1.000000
1.000000 0.000000 1.000000
1.000000 0.000000 1.000000
1.000000 0.000000 1.000000
0.000000 0.156325 1.000000
0.000000 0.151272 1.000000
0.000000 0.140151 1.000000
0.228612 0.114266 1.000000
0.522457 0.045544 1.000000
0.857143 0.000000 1.000000
1.000000 0.000000 1.000000
1.000000 0.000000 1.000000
1.000000 0.000000 1.000000
0.000000 0.304685 1.000000
0.000000 0.301821 1.000000
0.000000 0.295679 1.000000
0.134933 0.282290 1.000000
0.485609 0.251895 1.000000
0.835877 0.173739 1.000000
1.000000 0.000000 1.000000
1.000000 0.000000 1.000000
1.000000 0.000000 1.000000
0.000000 0.494030 1.000000
0.000000 0.492245 1.000000
0.000000 0.488446 1.000000
0.000000 0.480313 1.000000
0.396459 0.462638 1.000000
0.788836 0.422822 1.000000
1.000000 0.323229 1.000000
1.000000 0.000000 1.000000
1.000000 0.000000 1.000000
0.000000 0.749211 1.000000
0.000000 0.748059 1.000000
0.000000 0.745617 1.000000
0.000000 0.740423 1.000000
0.046152 0.729309 1.000000
0.677705 0.705183 1.000000
1.000000 0.651008 1.000000
1.000000 0.516905 1.000000
1.000000 0.000000 1.000000
0.000000 1.000000 1.000000
0.000000 1.000000 1.000000
0.000000 1.000000 1.000000
0.000000 1.000000 1.000000
0.000000 1.000000 1.000000
0.330598 1.000000 1.000000
1.000000 1.000000 1.000000
1.000000 0.963925 1.000000
1.000000 0.779376 1.000000
0.000000 1.000000 0.988709
0.000000 1.000000 0.988585
0.000000 1.000000 0.988323
0.000000 1.000000 0.987769
0.000000 1.000000 0.986597
0.000000 1.000000 0.984112
0.598926 1.000000 0.978835
1.000000 1.000000 0.967569
1.000000 1.000000 0.943252
0.000000 1.000000 0.847968
0.000000 1.000000 0.847821
0.000000 1.000000 0.847511
0.000000 1.000000 0.846855
0.000000 1.000000 0.845465
0.000000 1.000000 0.842518
0.000000 1.000000 0.836248
0.935023 1.000000 0.822816
1.000000 1.000000 0.793594
0.000000 0.000000 1.000000
0.000000 0.000000 1.000000
0.000000 0.000000 1.000000
0.018515 0.000000 1.000000
0.454645 0.000000 1.000000
0.818805 0.000000 1.000000
1.000000 0.000000 1.000000
1.000000 0.000000 1.000000
1.000000 0.000000 1.000000
0.000000 0.000000 1.000000
0.000000 0.000000 1.000000
0.000000 0.000000 1.000000
0.000000 0.000000 1.000000
0.445404 0.000000 1.000000
0.813857 0.000000 1.000000
1.000000 0.000000 1.000000
1.000000 0.000000 1.000000
1.000000 0.000000 1.000000
0.000000 0.123897 1.000000
0.000000 0.117904 1.000000
0.000000 0.104514 1.000000
0.000000 0.071958 1.000000
0.425202 0.000000 1.000000
0.803284 0.000000 1.000000
1.000000 0.000000 1.000000
1.000000 0.000000 1.000000
1.000000 0.000000 1.000000
0.000000 0.287118 1.000000
0.000000 0.284092 1.000000
0.000000 0.277595 1.000000
0.000000 0.263382 1.000000
0.378999 0.230829 1.000000
0.780412 0.144181 1.000000
1.000000 0.000000 1.000000
1.000000 0.000000 1.000000
1.000000 0.000000 1.000000
0.000000 0.483223 1.000000
0.000000 0.481396 1.000000
0.000000 0.477510 1.000000
0.000000 0.469185 1.000000
0.256756 0.451070 1.000000
0.729479 0.410138 1.000000
1.000000 0.306644 1.000000
1.000000 0.000000 1.000000
1.000000 0.000000 1.000000
0.000000 0.742275 1.000000
0.000000 0.741112 1.000000
0.000000 0.738645 1.000000
0.000000 0.733398 1.000000
0.000000 0.722167 1.000000
0.606711 0.697776 1.000000
1.000000 0.642934 1.000000
1.000000 0.506595 1.000000
1.000000 0.000000 1.000000
0.000000 1.000000 1.000000
0.000000 1.000000 1.000000
0.000000 1.000000 1.000000
0.000000 1.000000 1.000000
0.000000 1.000000 1.000000
0.145071 1.000000 1.000000
0.995773 1.000000 1.000000
1.000000 0.958671 1.000000
1.000000 0.772733 1.000000
0.000000 1.000000 1.000000
0.000000 1.000000 1.000000
0.000000 1.000000 1.000000
0.000000 1.000000 1.000000
0.000000 1.000000 1.000000
0.000000 1.000000 1.000000
0.516630 1.000000 1.000000
1.000000 1.000000 1.000000
1.000000 1.000000 1.000000
0.000000 1.000000 1.000000
0.000000 1.000000 1.000000
0.000000 1.000000 1.000000
0.000000 1.000000 1.000000
0.000000 1.000000 1.000000
0.000000 1.000000 1.000000
0.000000 1.000000 1.000000
0.886363 1.000000 1.000000
1.000000 1.000000 1.000000
0.000000 0.000000 1.000000
0.000000 0.000000 1.000000
0.000000 0.000000 1.000000
0.000000 0.000000 1.000000
0.128905 0.000000 1.000000
0.692691 0.000000 1.000000
1.000000 0.000000 1.000000
1.000000 0.000000 1.000000
1.000000 0.000000 1.000000
0.000000 0.000000 1.000000
0.000000 0.000000 1.000000
0.000000 0.000000 1.000000
0.000000 0.000000 1.000000
0.099552 0.000000 1.000000
0.686756 0.000000 1.000000
1.000000 0.000000 1.000000
1.000000 0.000000 1.000000
1.000000 0.000000 1.000000
0.000000 0.033095 1.000000
0.000000 0.025464 1.000000
0.000000 0.009327 1.000000
0.000000 0.000000 1.000000
0.024285 0.000000 1.000000
0.674021 0.000000 1.000000
1.000000 0.000000 1.000000
1.000000 0.000000 1.000000
1.000000 0.000000 1.000000
0.000000 0.246318 1.000000
0.000000 0.242845 1.000000
0.000000 0.235354 1.000000
0.000000 0.218796 1.000000
0.000000 0.179757 1.000000
0.646208 0.060824 1.000000
1.000000 0.000000 1.000000
1.000000 0.000000 1.000000
1.000000 0.000000 1.000000
0.000000 0.459519 1.000000
0.000000 0.457597 1.000000
0.000000 0.453506 1.000000
0.000000 0.444729 1.000000
0.000000 0.425573 1.000000
0.582767 0.381955 1.000000
1.000000 0.268518 1.000000
1.000000 0.000000 1.000000
1.000000 0.000000 1.000000
0.000000 0.727373 1.000000
0.000000 0.726184 1.000000
0.000000 0.723662 1.000000
0.000000 0.718297 1.000000
0.000000 0.706808 1.000000
0.416664 0.681828 1.000000
1.000000 0.625496 1.000000
1.000000 0.484054 1.000000
1.000000 0.000000 1.000000
0.000000 1.000000 1.000000
0.000000 1.000000 1.000000
0.000000 1.000000 1.000000
0.000000 1.000000 1.000000
0.000000 1.000000 1.000000
0.000000 1.000000 1.000000
0.897164 1.000000 1.000000
1.000000 0.947455 1.000000
1.000000 0.758477 1.000000
0.000000 1.000000 1.000000
0.000000 1.000000 1.000000
0.000000 1.000000 1.000000
0.000000 1.000000 1.000000
0.000000 1.000000 1.000000
0.000000 1.000000 1.000000
0.269655 1.000000 1.000000
1.000000 1.000000 1.000000
1.000000 1.000000 1.000000
0.000000 1.000000 1.000000
0.000000 1.000000 1.000000
0.000000 1.000000 1.000000
0.000000 1.000000 1.000000
0.000000 1.000000 1.000000
0.000000 1.000000 1.000000
0.000000 1.000000 1.000000
0.772352 1.000000 1.000000
1.000000 1.000000 1.000000
