assets/luts/Nikon_NLog_BT2020_to_Rec709.cube
# Nikon N-Log (BT.2020 gamut) -> Rec.709 conversion
# Generated by scripts/generate-conversion-luts.mjs -- do not hand-edit.
# Spec: Nikon "N-Log Specification Document", Version 1.0.0, September 1st 2018
#   https://download.nikonimglib.com/archive3/hDCmK00m9JDI03RPruD74xpoU905/N-Log_Specification_(En)01.pdf
#   curve   : x < 452 -> y = (x/650)^3 - 0.0075 ; else y = exp((x-619)/150)  (x = 10-bit code, y = reflectance)
#   gamut   : ITU-R BT.2020 primaries, D65 white point
# Output  : ITU-R BT.709-6 OETF, clipped to [0,1]. No exposure offset and no highlight
#           rolloff -- Nikon publishes neither. Colorimetric conversion, not a look.
TITLE "Nikon N-Log BT.2020 to Rec.709"
LUT_3D_SIZE 33
DOMAIN_MIN 0.0 0.0 0.0
DOMAIN_MAX 1.0 1.0 1.0
0.000000 0.000000 0.000000
0.000000 0.000000 0.000000
0.000000 0.000000 0.000000
0.000000 0.000000 0.000000
0.023144 0.000000 0.000000
0.077371 0.000000 0.000000
0.144656 0.000000 0.000000
0.211462 0.000000 0.000000
0.279587 0.000000 0.000000
0.349565 0.000000 0.000000
0.421579 0.000000 0.000000
0.495669 0.000000 0.000000
0.571817 0.000000 0.000000
0.649975 0.000000 0.000000
0.730088 0.000000 0.000000
0.812726 0.000000 0.000000
0.903846 0.000000 0.000000
1.000000 0.000000 0.000000
1.000000 0.000000 0.000000
1.000000 0.000000 0.000000
1.000000 0.000000 0.000000
1.000000 0.000000 0.000000
1.000000 0.000000 0.000000
1.000000 0.000000 0.000000
1.000000 0.000000 0.000000
1.000000 0.000000 0.000000
1.000000 0.000000 0.000000
1.000000 0.000000 0.000000
1.000000 0.000000 0.000000
1.000000 0.000000 0.000000
1.000000 0.000000 0.000000
1.000000 0.000000 0.000000
1.000000 0.000000 0.000000
0.000000 0.000000 0.000000
0.000000 0.000000 0.000000
0.000000 0.000000 0.000000
0.000000 0.000000 0.000000
0.022829 0.000000 0.000000
0.077056 0.000000 0.000000
0.144438 0.000000 0.000000
0.211299 0.000000 0.000000
0.279459 0.000000 0.000000
0.349462 0.000000 0.000000
0.421493 0.000000 0.000000
0.495596 0.000000 0.000000
0.571753 0.000000 0.000000
0.649920 0.000000 0.000000
0.730039 0.000000 0.000000
0.812683 0.000000 0.000000
0.903808 0.000000 0.000000
1.000000 0.000000 0.000000
1.000000 0.000000 0.000000
1.000000 0.000000 0.000000
1.000000 0.000000 0.000000
1.000000 0.000000 0.000000
1.000000 0.000000 0.000000
1.000000 0.000000 0.000000
1.000000 0.000000 0.000000
1.000000 0.000000 0.000000
1.000000 0.000000 0.000000
1.000000 0.000000 0.000000
1.000000 0.000000 0.000000
1.000000 0.000000 0.000000
1.000000 0.000000 0.000000
1.000000 0.000000 0.000000
1.000000 0.000000 0.000000
0.000000 0.000000 0.000000
0.000000 0.000000 0.000000
0.000000 0.000000 0.000000
0.000000 0.000000 0.000000
0.020627 0.000000 0.000000
0.074854 0.000000 0.000000
0.142905 0.000000 0.000000
0.210162 0.000000 0.000000
0.278567 0.000000 0.000000
0.348737 0.000000 0.000000
0.420889 0.000000 0.000000
0.495083 0.000000 0.000000
0.571311 0.000000 0.000000
0.649533 0.000000 0.000000
0.729698 0.000000 0.000000
0.812379 0.000000 0.000000
0.903537 0.000000 0.000000
1.000000 0.000000 0.000000
1.000000 0.000000 0.000000
1.000000 0.000000 0.000000
1.000000 0.000000 0.000000
1.000000 0.000000 0.000000
1.000000 0.000000 0.000000
1.000000 0.000000 0.000000
1.000000 0.000000 0.000000
1.000000 0.000000 0.000000
1.000000 0.000000 0.000000
1.000000 0.000000 0.000000
1.000000 0.000000 0.000000
1.000000 0.000000 0.000000
1.000000 0.000000 0.000000
1.000000 0.000000 0.000000
1.000000 0.000000 0.000000
0.000000 0.000000 0.000000
0.000000 0.000000 0.000000
0.000000 0.000000 0.000000
0.000000 0.000000 0.000000
0.014650 0.000000 0.000000
0.068877 0.000000 0.000000
0.138682 0.000000 0.000000
0.207047 0.000000 0.000000
0.276133 0.000000 0.000000
0.346763 0.000000 0.000000
0.419246 0.000000 0.000000
0.493687 0.000000 0.000000
0.570107 0.000000 0.000000
0.648482 0.000000 0.000000
0.728770 0.000000 0.000000
0.811552 0.000000 0.000000
0.902801 0.000000 0.000000
1.000000 0.000000 0.000000
1.000000 0.000000 0.000000
1.000000 0.000000 0.000000
1.000000 0.000000 0.000000
1.000000 0.000000 0.000000
1.000000 0.000000 0.000000
1.000000 0.000000 0.000000
1.000000 0.000000 0.000000
1.000000 0.000000 0.000000
1.000000 0.000000 0.000000
1.000000 0.000000 0.000000
1.000000 0.000000 0.000000
1.000000 0.000000 0.000000
1.000000 0.000000 0.000000
1.000000 0.000000 0.000000
1.000000 0.000000 0.000000
0.000000 0.005067 0.000000
0.000000 0.005000 0.000000
0.000000 0.004533 0.000000
0.000000 0.003267 0.000000
0.003009 0.000799 0.000000
0.057236 0.000000 0.000000
0.130184 0.000000 0.000000
0.200868 0.000000 0.000000
0.271337 0.000000 0.000000
0.342889 0.000000 0.000000
0.416027 0.000000 0.000000
0.490959 0.000000 0.000000
0.567756 0.000000 0.000000
0.646429 0.000000 0.000000
0.726958 0.000000 0.000000
0.809941 0.000000 0.000000
0.901368 0.000000 0.000000
1.000000 0.000000 0.000000
1.000000 0.000000 0.000000
1.000000 0.000000 0.000000
1.000000 0.000000 0.000000
1.000000 0.000000 0.000000
1.000000 0.000000 0.000000
1.000000 0.000000 0.000000
1.000000 0.000000 0.000000
1.000000 0.000000 0.000000
1.000000 0.000000 0.000000
1.000000 0.000000 0.000000
1.000000 0.000000 0.000000
1.000000 0.000000 0.000000
1.000000 0.000000 0.000000
1.000000 0.000000 0.000000
1.000000 0.000000 0.000000
0.000000 0.042064 0.000000
0.000000 0.041998 0.000000
0.000000 0.041531 0.000000
0.000000 0.040264 0.000000
0.000000 0.037797 0.000000
0.038046 0.033729 0.000000
0.115266 0.027661 0.000000
0.190326 0.019193 0.000000
0.263259 0.007924 0.000000
0.336408 0.000000 0.000000
0.410667 0.000000 0.000000
0.486426 0.000000 0.000000
0.563857 0.000000 0.000000
0.643030 0.000000 0.000000
0.723961 0.000000 0.000000
0.807276 0.000000 0.000000
0.898998 0.000000 0.000000
0.999898 0.000000 0.000000
1.000000 0.000000 0.000000
1.000000 0.000000 0.000000
1.000000 0.000000 0.000000
1.000000 0.000000 0.000000
1.000000 0.000000 0.000000
1.000000 0.000000 0.000000
1.000000 0.000000 0.000000
1.000000 0.000000 0.000000
1.000000 0.000000 0.000000
1.000000 0.000000 0.000000
1.000000 0.000000 0.000000
1.000000 0.000000 0.000000
1.000000 0.000000 0.000000
1.000000 0.000000 0.000000
1.000000 0.000000 0.000000
0.000000 0.096712 0.000000
0.000000 0.096651 0.000000
0.000000 0.096228 0.000000
0.000000 0.095073 0.000000
0.000000 0.092799 0.000000
0.009417 0.088978 0.000000
0.090295 0.083093 0.000000
0.173665 0.074386 0.000000
0.250783 0.063117 0.000000
0.326515 0.048647 0.000000
0.402541 0.030577 0.000000
0.479584 0.008506 0.000000
0.557989 0.000000 0.000000
0.637924 0.000000 0.000000
0.719466 0.000000 0.000000
0.803283 0.000000 0.000000
0.895451 0.000000 0.000000
0.996745 0.000000 0.000000
1.000000 0.000000 0.000000
1.000000 0.000000 0.000000
1.000000 0.000000 0.000000
1.000000 0.000000 0.000000
1.000000 0.000000 0.000000
1.000000 0.000000 0.000000
1.000000 0.000000 0.000000
1.000000 0.000000 0.000000
1.000000 0.000000 0.000000
1.000000 0.000000 0.000000
1.000000 0.000000 0.000000
1.000000 0.000000 0.000000
1.000000 0.000000 0.000000
1.000000 0.000000 0.000000
1.000000 0.000000 0.000000
0.000000 0.155459 0.000000
0.000000 0.155415 0.000000
0.000000 0.155109 0.000000
0.000000 0.154273 0.000000
0.000000 0.152636 0.000000
0.000000 0.149909 0.000000
0.050358 0.145772 0.000000
0.148084 0.139850 0.000000
0.232402 0.131681 0.000000
0.312220 0.120641 0.000000
0.390922 0.105822 0.000000
0.469865 0.085720 0.000000
0.549690 0.059062 0.000000
0.630724 0.027789 0.000000
0.713141 0.000000 0.000000
0.797673 0.000000 0.000000
0.890474 0.000000 0.000000
0.992328 0.000000 0.000000
1.000000 0.000000 0.000000
1.000000 0.000000 0.000000
1.000000 0.000000 0.000000
1.000000 0.000000 0.000000
1.000000 0.000000 0.000000
1.000000 0.000000 0.000000
1.000000 0.000000 0.000000
1.000000 0.000000 0.000000
1.000000 0.000000 0.000000
1.000000 0.000000 0.000000
1.000000 0.000000 0.000000
1.000000 0.000000 0.000000
1.000000 0.000000 0.000000
1.000000 0.000000 0.000000
1.000000 0.000000 0.000000
0.000000 0.214340 0.000000
0.000000 0.214306 0.000000
0.000000 0.214069 0.000000
0.000000 0.213422 0.000000
0.000000 0.212157 0.000000
0.000000 0.210059 0.000000
0.000000 0.206895 0.000000
0.107937 0.202412 0.000000
0.205814 0.196318 0.000000
0.292197 0.188259 0.000000
0.374918 0.177789 0.000000
0.456610 0.164305 0.000000
0.538441 0.146926 0.000000
0.621007 0.124235 0.000000
0.704630 0.093564 0.000000
0.790142 0.051397 0.000000
0.883803 0.000000 0.000000
0.986415 0.000000 0.000000
1.000000 0.000000 0.000000
1.000000 0.000000 0.000000
1.000000 0.000000 0.000000
1.000000 0.000000 0.000000
1.000000 0.000000 0.000000
1.000000 0.000000 0.000000
1.000000 0.000000 0.000000
1.000000 0.000000 0.000000
1.000000 0.000000 0.000000
1.000000 0.000000 0.000000
1.000000 0.000000 0.000000
1.000000 0.000000 0.000000
1.000000 0.000000 0.000000
1.000000 0.000000 0.000000
1.000000 0.000000 0.000000
0.000000 0.274285 0.000000
0.000000 0.274257 0.000000
0.000000 0.274065 0.000000
0.000000 0.273543 0.000000
0.000000 0.272524 0.000000
0.000000 0.270837 0.000000
0.000000 0.268302 0.000000
0.041821 0.264728 0.000000
0.166825 0.259905 0.000000
0.264488 0.253593 0.000000
0.353346 0.245511 0.000000
0.439000 0.235314 0.000000
0.523632 0.222558 0.000000
0.608290 0.206644 0.000000
0.693537 0.186698 0.000000
0.780356 0.161116 0.000000
0.875156 0.124374 0.000000
0.978764 0.065451 0.000000
1.000000 0.000000 0.000000
1.000000 0.000000 0.000000
1.000000 0.000000 0.000000
1.000000 0.000000 0.000000
1.000000 0.000000 0.000000
1.000000 0.000000 0.000000
1.000000 0.000000 0.000000
1.000000 0.000000 0.000000
1.000000 0.000000 0.000000
1.000000 0.000000 0.000000
1.000000 0.000000 0.000000
1.000000 0.000000 0.000000
1.000000 0.000000 0.000000
1.000000 0.000000 0.000000
1.000000 0.000000 0.000000
0.000000 0.335652 0.000000
0.000000 0.335629 0.000000
0.000000 0.335469 0.000000
0.000000 0.335036 0.000000
0.000000 0.334191 0.000000
0.000000 0.332794 0.000000
0.000000 0.330699 0.000000
0.000000 0.327754 0.000000
0.105130 0.323796 0.000000
0.225762 0.318646 0.000000
0.324499 0.312105 0.000000
0.415967 0.303938 0.000000
0.504509 0.293867 0.000000
0.592004 0.281548 0.000000
0.679411 0.266534 0.000000
0.767944 0.248066 0.000000
0.864224 0.223377 0.000000
0.969115 0.189186 0.000000
1.000000 0.138381 0.000000
1.000000 0.049772 0.000000
1.000000 0.000000 0.000000
1.000000 0.000000 0.000000
1.000000 0.000000 0.000000
1.000000 0.000000 0.000000
1.000000 0.000000 0.000000
1.000000 0.000000 0.000000
1.000000 0.000000 0.000000
1.000000 0.000000 0.000000
1.000000 0.000000 0.000000
1.000000 0.000000 0.000000
1.000000 0.000000 0.000000
1.000000 0.000000 0.000000
1.000000 0.000000 0.000000
0.000000 0.398582 0.000000
0.000000 0.398562 0.000000
0.000000 0.398427 0.000000
0.000000 0.398060 0.000000
0.000000 0.397344 0.000000
0.000000 0.396162 0.000000
0.000000 0.394391 0.000000
0.000000 0.391906 0.000000
0.002666 0.388576 0.000000
0.169003 0.384259 0.000000
0.285625 0.378801 0.000000
0.386001 0.372028 0.000000
0.480098 0.363745 0.000000
0.571453 0.353720 0.000000
0.661721 0.341674 0.000000
0.752483 0.327138 0.000000
0.850661 0.308247 0.000000
0.957184 0.283272 0.000000
1.000000 0.249291 0.000000
1.000000 0.200597 0.000000
1.000000 0.121911 0.000000
1.000000 0.000000 0.000000
1.000000 0.000000 0.000000
1.000000 0.000000 0.000000
1.000000 0.000000 0.000000
1.000000 0.000000 0.000000
1.000000 0.000000 0.000000
1.000000 0.000000 0.000000
1.000000 0.000000 0.000000
1.000000 0.000000 0.000000
1.000000 0.000000 0.000000
1.000000 0.000000 0.000000
1.000000 0.000000 0.000000
0.000000 0.463119 0.000000
0.000000 0.463102 0.000000
0.000000 0.462986 0.000000
0.000000 0.462670 0.000000
0.000000 0.462053 0.000000
0.000000 0.461036 0.000000
0.000000 0.459513 0.000000
0.000000 0.457379 0.000000
0.000000 0.454525 0.000000
0.070675 0.450833 0.000000
0.231493 0.446179 0.000000
0.346770 0.440428 0.000000
0.449050 0.433429 0.000000
0.545740 0.425015 0.000000
0.639817 0.414987 0.000000
0.733474 0.403015 0.000000
0.834076 0.387685 0.000000
0.942653 0.367854 0.000000
1.000000 0.341789 0.000000
1.000000 0.306661 0.000000
1.000000 0.257227 0.000000
1.000000 0.181009 0.000000
1.000000 0.026845 0.000000
1.000000 0.000000 0.000000
1.000000 0.000000 0.000000
1.000000 0.000000 0.000000
1.000000 0.000000 0.000000
1.000000 0.000000 0.000000
1.000000 0.000000 0.000000
1.000000 0.000000 0.000000
1.000000 0.000000 0.000000
1.000000 0.000000 0.000000
1.000000 0.000000 0.000000
0.000000 0.529261 0.000000
0.000000 0.529247 0.000000
0.000000 0.529145 0.000000
0.000000 0.528869 0.000000
0.000000 0.528332 0.000000
0.000000 0.527444 0.000000
0.000000 0.526116 0.000000
0.000000 0.524258 0.000000
0.000000 0.521775 0.000000
0.000000 0.518569 0.000000
0.148614 0.514536 0.000000
0.294154 0.509565 0.000000
0.409348 0.503538 0.000000
0.513650 0.496320 0.000000
0.612872 0.487765 0.000000
0.710311 0.477620 0.000000
0.814006 0.464744 0.000000
0.925160 0.448293 0.000000
1.000000 0.427058 0.000000
1.000000 0.399232 0.000000
1.000000 0.361919 0.000000
1.000000 0.309885 0.000000
1.000000 0.231356 0.000000
1.000000 0.077737 0.000000
1.000000 0.000000 0.000000
1.000000 0.000000 0.000000
1.000000 0.000000 0.000000
1.000000 0.000000 0.000000
1.000000 0.000000 0.000000
1.000000 0.000000 0.000000
1.000000 0.000000 0.000000
1.000000 0.000000 0.000000
1.000000 0.000000 0.000000
0.000000 0.596984 0.000000
0.000000 0.596971 0.000000
0.000000 0.596882 0.000000
0.000000 0.596638 0.000000
0.000000 0.596164 0.000000
0.000000 0.595381 0.000000
0.000000 0.594211 0.000000
0.000000 0.592574 0.000000
0.000000 0.590388 0.000000
0.000000 0.587569 0.000000
0.000000 0.584029 0.000000
0.219091 0.579674 0.000000
0.357629 0.574406 0.000000
0.473412 0.568116 0.000000
0.579780 0.560687 0.000000
0.682228 0.551917 0.000000
0.789895 0.540849 0.000000
0.904285 0.526821 0.000000
1.000000 0.508909 0.000000
1.000000 0.485807 0.000000
1.000000 0.455574 0.000000
1.000000 0.415114 0.000000
1.000000 0.358895 0.000000
1.000000 0.274737 0.000000
1.000000 0.116490 0.000000
1.000000 0.000000 0.000000
1.000000 0.000000 0.000000
1.000000 0.000000 0.000000
1.000000 0.000000 0.000000
1.000000 0.000000 0.000000
1.000000 0.000000 0.000000
1.000000 0.000000 0.000000
1.000000 0.000000 0.000000
0.000000 0.666786 0.000000
0.000000 0.666775 0.000000
0.000000 0.666695 0.000000
0.000000 0.666479 0.000000
0.000000 0.666057 0.000000
0.000000 0.665360 0.000000
0.000000 0.664320 0.000000
0.000000 0.662865 0.000000
0.000000 0.660924 0.000000
0.000000 0.658423 0.000000
0.000000 0.655285 0.000000
0.086234 0.651430 0.000000
0.286615 0.646775 0.000000
0.421768 0.641230 0.000000
0.538626 0.634697 0.000000
0.647931 0.627009 0.000000
0.760808 0.617346 0.000000
0.879321 0.605163 0.000000
1.000000 0.589720 0.000000
1.000000 0.570001 0.000000
1.000000 0.544569 0.000000
1.000000 0.511286 0.000000
1.000000 0.466743 0.000000
1.000000 0.404848 0.000000
1.000000 0.312180 0.000000
1.000000 0.137836 0.000000
1.000000 0.000000 0.000000
1.000000 0.000000 0.000000
1.000000 0.000000 0.000000
1.000000 0.000000 0.000000
1.000000 0.000000 0.000000
1.000000 0.000000 0.000000
1.000000 0.000000 0.000000
0.000000 0.743705 0.000000
0.000000 0.743695 0.000000
0.000000 0.743624 0.000000
0.000000 0.743431 0.000000
0.000000 0.743056 0.000000
0.000000 0.742437 0.000000
0.000000 0.741512 0.000000
0.000000 0.740219 0.000000
0.000000 0.738495 0.000000
0.000000 0.736275 0.000000
0.000000 0.733492 0.000000
0.000000 0.730077 0.000000
0.166225 0.725959 0.000000
0.347494 0.721061 0.000000
0.482649 0.715304 0.000000
0.602580 0.708544 0.000000
0.723023 0.700075 0.000000
0.847276 0.689440 0.000000
0.977729 0.676030 0.000000
1.000000 0.659032 0.000000
1.000000 0.637328 0.000000
1.000000 0.609336 0.000000
1.000000 0.572702 0.000000
1.000000 0.523674 0.000000
1.000000 0.455546 0.000000
1.000000 0.353546 0.000000
1.000000 0.161632 0.000000
1.000000 0.000000 0.000000
1.000000 0.000000 0.000000
1.000000 0.000000 0.000000
1.000000 0.000000 0.000000
1.000000 0.000000 0.000000
1.000000 0.000000 0.000000
0.000000 0.828384 0.000000
0.000000 0.828375 0.000000
0.000000 0.828312 0.000000
0.000000 0.828141 0.000000
0.000000 0.827807 0.000000
0.000000 0.827256 0.000000
0.000000 0.826434 0.000000
0.000000 0.825285 0.000000
0.000000 0.823753 0.000000
0.000000 0.821781 0.000000
0.000000 0.819312 0.000000
0.000000 0.816285 0.000000
0.000000 0.812638 0.000000
0.226513 0.808306 0.000000
0.402612 0.803222 0.000000
0.540942 0.797265 0.000000
0.673100 0.789819 0.000000
0.805683 0.780497 0.000000
0.942456 0.768791 0.000000
1.000000 0.754031 0.000000
1.000000 0.735322 0.000000
1.000000 0.711433 0.000000
1.000000 0.680623 0.000000
1.000000 0.640301 0.000000
1.000000 0.586337 0.000000
1.000000 0.511349 0.000000
1.000000 0.399078 0.000000
1.000000 0.187828 0.000000
1.000000 0.000000 0.000000
1.000000 0.000000 0.000000
1.000000 0.000000 0.000000
1.000000 0.000000 0.000000
1.000000 0.000000 0.000000
0.000000 0.921603 0.000000
0.000000 0.921595 0.000000
0.000000 0.921539 0.000000
0.000000 0.921386 0.000000
0.000000 0.921089 0.000000
0.000000 0.920600 0.000000
0.000000 0.919868 0.000000
0.000000 0.918847 0.000000
0.000000 0.917486 0.000000
0.000000 0.915734 0.000000
0.000000 0.913542 0.000000
0.000000 0.910857 0.000000
0.000000 0.907624 0.000000
0.000000 0.903789 0.000000
0.274068 0.899293 0.000000
0.452799 0.894034 0.000000
0.605245 0.887471 0.000000
0.750728 0.879275 0.000000
0.896672 0.869015 0.000000
1.000000 0.856130 0.000000
1.000000 0.839885 0.000000
1.000000 0.819292 0.000000
1.000000 0.792999 0.000000
1.000000 0.759087 0.000000
1.000000 0.714705 0.000000
1.000000 0.655308 0.000000
1.000000 0.572771 0.000000
1.000000 0.449196 0.000000
1.000000 0.216665 0.000000
1.000000 0.000000 0.000000
1.000000 0.000000 0.000000
1.000000 0.000000 0.000000
1.000000 0.000000 0.000000
0.000000 1.000000 0.000000
0.000000 1.000000 0.000000
0.000000 1.000000 0.000000
0.000000 1.000000 0.000000
0.000000 1.000000 0.000000
0.000000 1.000000 0.000000
0.000000 1.000000 0.000000
0.000000 1.000000 0.000000
0.000000 1.000000 0.000000
0.000000 1.000000 0.000000
0.000000 1.000000 0.000000
0.000000 1.000000 0.000000
0.000000 1.000000 0.000000
0.000000 1.000000 0.000000
0.000000 1.000000 0.000000
0.311183 0.999775 0.000000
0.508208 0.993981 0.000000
0.676033 0.986758 0.000000
0.836180 0.977737 0.000000
0.996828 0.966444 0.000000
1.000000 0.952262 0.000000
1.000000 0.934381 0.000000
1.000000 0.911715 0.000000
1.000000 0.882775 0.000000
1.000000 0.845449 0.000000
1.000000 0.796600 0.000000
1.000000 0.731223 0.000000
1.000000 0.640377 0.000000
1.000000 0.504360 0.000000
1.000000 0.248409 0.000000
1.000000 0.000000 0.000000
1.000000 0.000000 0.000000
1.000000 0.000000 0.000000
0.000000 1.000000 0.000000
0.000000 1.000000 0.000000
0.000000 1.000000 0.000000
0.000000 1.000000 0.000000
0.000000 1.000000 0.000000
0.000000 1.000000 0.000000
0.000000 1.000000 0.000000
0.000000 1.000000 0.000000
0.000000 1.000000 0.000000
0.000000 1.000000 0.000000
0.000000 1.000000 0.000000
0.000000 1.000000 0.000000
0.000000 1.000000 0.000000
0.000000 1.000000 0.000000
0.000000 1.000000 0.000000
0.000000 1.000000 0.000000
0.352279 1.000000 0.000000
0.569209 1.000000 0.000000
0.753957 1.000000 0.000000
0.930242 1.000000 0.000000
1.000000 1.000000 0.000000
1.000000 1.000000 0.000000
1.000000 1.000000 0.000000
1.000000 1.000000 0.000000
1.000000 0.981589 0.000000
1.000000 0.940506 0.000000
1.000000 0.886739 0.000000
1.000000 0.814781 0.000000
1.000000 0.714789 0.000000
1.000000 0.565078 0.000000
1.000000 0.283351 0.000000
1.000000 0.000000 0.000000
1.000000 0.000000 0.000000
0.000000 1.000000 0.000000
0.000000 1.000000 0.000000
0.000000 1.000000 0.000000
0.000000 1.000000 0.000000
0.000000 1.000000 0.000000
0.000000 1.000000 0.000000
0.000000 1.000000 0.000000
0.000000 1.000000 0.000000
0.000000 1.000000 0.000000
0.000000 1.000000 0.000000
0.000000 1.000000 0.000000
0.000000 1.000000 0.000000
0.000000 1.000000 0.000000
0.000000 1.000000 0.000000
0.000000 1.000000 0.000000
0.000000 1.000000 0.000000
0.000000 1.000000 0.000000
0.397534 1.000000 0.000000
0.636364 1.000000 0.000000
0.839735 1.000000 0.000000
1.000000 1.000000 0.000000
1.000000 1.000000 0.000000
1.000000 1.000000 0.000000
1.000000 1.000000 0.000000
1.000000 1.000000 0.000000
1.000000 1.000000 0.000000
1.000000 1.000000 0.000000
1.000000 0.985952 0.000000
1.000000 0.906750 0.000000
1.000000 0.796692 0.000000
1.000000 0.631909 0.000000
1.000000 0.321813 0.000000
1.000000 0.000000 0.000000
0.000000 1.000000 0.000000
0.000000 1.000000 0.000000
0.000000 1.000000 0.000000
0.000000 1.000000 0.000000
0.000000 1.000000 0.000000
0.000000 1.000000 0.000000
0.000000 1.000000 0.000000
0.000000 1.000000 0.000000
0.000000 1.000000 0.000000
0.000000 1.000000 0.000000
0.000000 1.000000 0.000000
0.000000 1.000000 0.000000
0.000000 1.000000 0.000000
0.000000 1.000000 0.000000
0.000000 1.000000 0.000000
0.000000 1.000000 0.000000
0.000000 1.000000 0.000000
0.000000 1.000000 0.000000
0.447362 1.000000 0.000000
0.710289 1.000000 0.000000
0.934155 1.000000 0.000000
1.000000 1.000000 0.000000
1.000000 1.000000 0.000000
1.000000 1.000000 0.000000
1.000000 1.000000 0.000000
1.000000 1.000000 0.000000
1.000000 1.000000 0.000000
1.000000 1.000000 0.000000
1.000000 1.000000 0.000000
1.000000 1.000000 0.000000
1.000000 0.886841 0.000000
1.000000 0.705468 0.000000
1.000000 0.364149 0.000000
0.000000 1.000000 0.000000
0.000000 1.000000 0.000000
0.000000 1.000000 0.000000
0.000000 1.000000 0.000000
0.000000 1.000000 0.000000
0.000000 1.000000 0.000000
0.000000 1.000000 0.000000
0.000000 1.000000 0.000000
0.000000 1.000000 0.000000
0.000000 1.000000 0.000000
0.000000 1.000000 0.000000
0.000000 1.000000 0.000000
0.000000 1.000000 0.000000
0.000000 1.000000 0.000000
0.000000 1.000000 0.000000
0.000000 1.000000 0.000000
0.000000 1.000000 0.000000
0.000000 1.000000 0.000000
0.000000 1.000000 0.000000
0.502223 1.000000 0.000000
0.791666 1.000000 0.000000
1.000000 1.000000 0.000000
1.000000 1.000000 0.000000
1.000000 1.000000 0.000000
1.000000 1.000000 0.000000
1.000000 1.000000 0.000000
1.000000 1.000000 0.000000
1.000000 1.000000 0.000000
1.000000 1.000000 0.000000
1.000000 1.000000 0.000000
1.000000 1.000000 0.000000
1.000000 0.986064 0.000000
1.000000 0.786433 0.000000
0.000000 1.000000 0.000000
0.000000 1.000000 0.000000
0.000000 1.000000 0.000000
0.000000 1.000000 0.000000
0.000000 1.000000 0.000000
0.000000 1.000000 0.000000
0.000000 1.000000 0.000000
0.000000 1.000000 0.000000
0.000000 1.000000 0.000000
0.000000 1.000000 0.000000
0.000000 1.000000 0.000000
0.000000 1.000000 0.000000
0.000000 1.000000 0.000000
0.000000 1.000000 0.000000
0.000000 1.000000 0.000000
0.000000 1.000000 0.000000
0.000000 1.000000 0.000000
0.000000 1.000000 0.000000
0.000000 1.000000 0.000000
0.000000 1.000000 0.000000
0.562620 1.000000 0.000000
0.881243 1.000000 0.000000
1.000000 1.000000 0.000000
1.000000 1.000000 0.000000
1.000000 1.000000 0.000000
1.000000 1.000000 0.000000
1.000000 1.000000 0.000000
1.000000 1.000000 0.000000
1.000000 1.000000 0.000000
1.000000 1.000000 0.000000
1.000000 1.000000 0.000000
1.000000 1.000000 0.000000
1.000000 1.000000 0.000000
0.000000 1.000000 0.000000
0.000000 1.000000 0.000000
0.000000 1.000000 0.000000
0.000000 1.000000 0.000000
0.000000 1.000000 0.000000
0.000000 1.000000 0.000000
0.000000 1.000000 0.000000
0.000000 1.000000 0.000000
0.000000 1.000000 0.000000
0.000000 1.000000 0.000000
0.000000 1.000000 0.000000
0.000000 1.000000 0.000000
0.000000 1.000000 0.000000
0.000000 1.000000 0.000000
0.000000 1.000000 0.000000
0.000000 1.000000 0.000000
0.000000 1.000000 0.000000
0.000000 1.000000 0.000000
0.000000 1.000000 0.000000
0.000000 1.000000 0.000000
0.000000 1.000000 0.000000
0.629110 1.000000 0.000000
0.979844 1.000000 0.000000
1.000000 1.000000 0.000000
1.000000 1.000000 0.000000
1.000000 1.000000 0.000000
1.000000 1.000000 0.000000
1.000000 1.000000 0.000000
1.000000 1.000000 0.000000
1.000000 1.000000 0.000000
1.000000 1.000000 0.000000
1.000000 1.000000 0.000000
1.000000 1.000000 0.000000
0.000000 1.000000 0.000000
0.000000 1.000000 0.000000
0.000000 1.000000 0.000000
