assets/luts/Nikon_NLog_BT2020_to_Rec709.cube
# Nikon N-Log (BT.2020 gamut) -> Rec.709 conversion
# Generated by scripts/generate-conversion-luts.mjs -- do not hand-edit.
# Spec: Nikon "N-Log Specification Document", Version 1.0.0, September 1st 2018
#   https://download.nikonimglib.com/archive3/hDCmK00m9JDI03RPruD74xpoU905/N-Log_Specification_(En)01.pdf
#   curve   : x < 452 -> y = (x/650)^3 - 0.0075 ; else y = exp((x-619)/150)  (x = 10-bit code, y = reflectance)
#   gamut   : ITU-R BT.2020 primaries, D65 white point
# Output  : ITU-R BT.709-6 OETF, clipped to [0,1]. No exposure offset and no highlight
#           rolloff -- Nikon publishes neither. Colorimetric conversion, not a look.
TITLE "Nikon N-Log BT.2020 to Rec.709"
LUT_3D_SIZE 5
DOMAIN_MIN 0.0 0.0 0.0
DOMAIN_MAX 1.0 1.0 1.0
0.000000 0.000000 0.000000
0.279587 0.000000 0.000000
0.903846 0.000000 0.000000
1.000000 0.000000 0.000000
1.000000 0.000000 0.000000
0.000000 0.214340 0.000000
0.205814 0.196318 0.000000
0.883803 0.000000 0.000000
1.000000 0.000000 0.000000
1.000000 0.000000 0.000000
0.000000 0.743705 0.000000
0.000000 0.738495 0.000000
0.723023 0.700075 0.000000
1.000000 0.455546 0.000000
1.000000 0.000000 0.000000
0.000000 1.000000 0.000000
0.000000 1.000000 0.000000
0.000000 1.000000 0.000000
1.000000 1.000000 0.000000
1.000000 1.000000 0.000000
0.000000 1.000000 0.000000
0.000000 1.000000 0.000000
0.000000 1.000000 0.000000
0.000000 1.000000 0.000000
1.000000 1.000000 0.000000
0.000000 0.000000 0.212354
0.271406 0.000000 0.209787
0.901388 0.000000 0.190639
1.000000 0.000000 0.052839
1.000000 0.000000 0.000000
0.000000 0.213172 0.197785
0.195061 0.195061 0.195061
0.881284 0.000000 0.174639
1.000000 0.000000 0.025269
1.000000 0.000000 0.000000
0.000000 0.743357 0.048464
0.000000 0.738144 0.043489
0.719886 0.699704 0.007962
1.000000 0.454966 0.000000
1.000000 0.000000 0.000000
0.000000 1.000000 0.000000
0.000000 1.000000 0.000000
0.000000 1.000000 0.000000
1.000000 1.000000 0.000000
1.000000 1.000000 0.000000
0.000000 1.000000 0.000000
0.000000 1.000000 0.000000
0.000000 1.000000 0.000000
0.000000 1.000000 0.000000
1.000000 1.000000 0.000000
0.000000 0.000000 0.738881
0.205030 0.000000 0.738119
0.883616 0.000000 0.732651
1.000000 0.000000 0.704319
1.000000 0.000000 0.519589
0.000000 0.204667 0.734647
0.097170 0.185889 0.733880
0.863056 0.000000 0.728378
1.000000 0.000000 0.699860
1.000000 0.000000 0.513436
0.000000 0.740867 0.703614
0.000000 0.735635 0.702811
0.697045 0.697045 0.697045
1.000000 0.450797 0.667090
1.000000 0.000000 0.467093
0.000000 1.000000 0.517022
0.000000 1.000000 0.515912
0.000000 1.000000 0.507909
1.000000 1.000000 0.465317
1.000000 1.000000 0.035315
0.000000 1.000000 0.000000
0.000000 1.000000 0.000000
0.000000 1.000000 0.000000
0.000000 1.000000 0.000000
1.000000 1.000000 0.000000
0.000000 0.000000 1.000000
0.000000 0.000000 1.000000
0.787044 0.000000 1.000000
1.000000 0.000000 1.000000
1.000000 0.000000 1.000000
0.000000 0.156293 1.000000
0.000000 0.132620 1.000000
0.763634 0.000000 1.000000
1.000000 0.000000 1.000000
1.000000 0.000000 1.000000
0.000000 0.728139 1.000000
0.000000 0.722808 1.000000
0.566695 0.683440 1.000000
1.000000 0.429112 1.000000
1.000000 0.000000 1.000000
0.000000 1.000000 1.000000
0.000000 1.000000 1.000000
0.000000 1.000000 1.000000
1.000000 1.000000 1.000000
1.000000 1.000000 1.000000
0.000000 1.000000 1.000000
0.000000 1.000000 1.000000
0.000000 1.000000 1.000000
0.000000 1.000000 1.000000
1.000000 1.000000 1.000000
0.000000 0.000000 1.000000
0.000000 0.000000 1.000000
0.000000 0.000000 1.000000
1.000000 0.000000 1.000000
1.000000 0.000000 1.000000
0.000000 0.000000 1.000000
0.000000 0.000000 1.000000
0.000000 0.000000 1.000000
1.000000 0.000000 1.000000
1.000000 0.000000 1.000000
0.000000 0.653357 1.000000
0.000000 0.647366 1.000000
0.000000 0.602750 1.000000
1.000000 0.282466 1.000000
1.000000 0.000000 1.000000
0.000000 1.000000 1.000000
0.000000 1.000000 1.000000
0.000000 1.000000 1.000000
1.000000 1.000000 1.000000
1.000000 1.000000 1.000000
0.000000 1.000000 1.000000
0.000000 1.000000 1.000000
0.000000 1.000000 1.000000
0.000000 1.000000 1.000000
1.000000 1.000000 1.000000
