assets/luts/Nikon_NLog_BT2020_to_Rec709.cube
# Nikon N-Log (BT.2020 gamut) -> Rec.709 conversion
# Generated by scripts/generate-conversion-luts.mjs -- do not hand-edit.
# Spec: Nikon "N-Log Specification Document", Version 1.0.0, September 1st 2018
#   https://download.nikonimglib.com/archive3/hDCmK00m9JDI03RPruD74xpoU905/N-Log_Specification_(En)01.pdf
#   curve   : x < 452 -> y = (x/650)^3 - 0.0075 ; else y = exp((x-619)/150)  (x = 10-bit code, y = reflectance)
#   gamut   : ITU-R BT.2020 primaries, D65 white point
# Output  : ITU-R BT.709-6 OETF, clipped to [0,1]. No exposure offset and no highlight
#           rolloff -- Nikon publishes neither. Colorimetric conversion, not a look.
TITLE "Nikon N-Log BT.2020 to Rec.709"
LUT_3D_SIZE 9
DOMAIN_MIN 0.0 0.0 0.0
DOMAIN_MAX 1.0 1.0 1.0
0.000000 0.000000 0.000000
0.023144 0.000000 0.000000
0.279587 0.000000 0.000000
0.571817 0.000000 0.000000
0.903846 0.000000 0.000000
1.000000 0.000000 0.000000
1.000000 0.000000 0.000000
1.000000 0.000000 0.000000
1.000000 0.000000 0.000000
0.000000 0.005067 0.000000
0.003009 0.000799 0.000000
0.271337 0.000000 0.000000
0.567756 0.000000 0.000000
0.901368 0.000000 0.000000
1.000000 0.000000 0.000000
1.000000 0.000000 0.000000
1.000000 0.000000 0.000000
1.000000 0.000000 0.000000
0.000000 0.214340 0.000000
0.000000 0.212157 0.000000
0.205814 0.196318 0.000000
0.538441 0.146926 0.000000
0.883803 0.000000 0.000000
1.000000 0.000000 0.000000
1.000000 0.000000 0.000000
1.000000 0.000000 0.000000
1.000000 0.000000 0.000000
0.000000 0.463119 0.000000
0.000000 0.462053 0.000000
0.000000 0.454525 0.000000
0.449050 0.433429 0.000000
0.834076 0.387685 0.000000
1.000000 0.257227 0.000000
1.000000 0.000000 0.000000
1.000000 0.000000 0.000000
1.000000 0.000000 0.000000
0.000000 0.743705 0.000000
0.000000 0.743056 0.000000
0.000000 0.738495 0.000000
0.166225 0.725959 0.000000
0.723023 0.700075 0.000000
1.000000 0.637328 0.000000
1.000000 0.455546 0.000000
1.000000 0.000000 0.000000
1.000000 0.000000 0.000000
0.000000 1.000000 0.000000
0.000000 1.000000 0.000000
0.000000 1.000000 0.000000
0.000000 1.000000 0.000000
0.352279 1.000000 0.000000
1.000000 1.000000 0.000000
1.000000 0.981589 0.000000
1.000000 0.714789 0.000000
1.000000 0.000000 0.000000
0.000000 1.000000 0.000000
0.000000 1.000000 0.000000
0.000000 1.000000 0.000000
0.000000 1.000000 0.000000
0.000000 1.000000 0.000000
0.562620 1.000000 0.000000
1.000000 1.000000 0.000000
1.000000 1.000000 0.000000
1.000000 1.000000 0.000000
0.000000 1.000000 0.000000
0.000000 1.000000 0.000000
0.000000 1.000000 0.000000
0.000000 1.000000 0.000000
0.000000 1.000000 0.000000
0.000000 1.000000 0.000000
0.871567 1.000000 0.000000
1.000000 1.000000 0.000000
1.000000 1.000000 0.000000
0.000000 1.000000 0.000000
0.000000 1.000000 0.000000
0.000000 1.000000 0.000000
0.000000 1.000000 0.000000
0.000000 1.000000 0.000000
0.000000 1.000000 0.000000
0.000000 1.000000 0.000000
1.000000 1.000000 0.000000
1.000000 1.000000 0.000000
0.000000 0.000000 0.004581
0.020648 0.000000 0.003959
0.278576 0.000000 0.000000
0.571315 0.000000 0.000000
0.903539 0.000000 0.000000
1.000000 0.000000 0.000000
1.000000 0.000000 0.000000
1.000000 0.000000 0.000000
1.000000 0.000000 0.000000
0.000000 0.004781 0.001135
0.000513 0.000513 0.000513
0.270299 0.000000 0.000000
0.567250 0.000000 0.000000
0.901060 0.000000 0.000000
1.000000 0.000000 0.000000
1.000000 0.000000 0.000000
1.000000 0.000000 0.000000
1.000000 0.000000 0.000000
0.000000 0.214195 0.000000
0.000000 0.212010 0.000000
0.204495 0.196161 0.000000
0.537907 0.146730 0.000000
0.883489 0.000000 0.000000
1.000000 0.000000 0.000000
1.000000 0.000000 0.000000
1.000000 0.000000 0.000000
1.000000 0.000000 0.000000
0.000000 0.463048 0.000000
0.000000 0.461982 0.000000
0.000000 0.454452 0.000000
0.448408 0.433353 0.000000
0.833741 0.387599 0.000000
1.000000 0.257102 0.000000
1.000000 0.000000 0.000000
1.000000 0.000000 0.000000
1.000000 0.000000 0.000000
0.000000 0.743662 0.000000
0.000000 0.743013 0.000000
0.000000 0.738451 0.000000
0.164660 0.725915 0.000000
0.722632 0.700029 0.000000
1.000000 0.637277 0.000000
1.000000 0.455474 0.000000
1.000000 0.000000 0.000000
1.000000 0.000000 0.000000
0.000000 1.000000 0.000000
0.000000 1.000000 0.000000
0.000000 1.000000 0.000000
0.000000 1.000000 0.000000
0.351464 1.000000 0.000000
1.000000 1.000000 0.000000
1.000000 0.981557 0.000000
1.000000 0.714744 0.000000
1.000000 0.000000 0.000000
0.000000 1.000000 0.000000
0.000000 1.000000 0.000000
0.000000 1.000000 0.000000
0.000000 1.000000 0.000000
0.000000 1.000000 0.000000
0.562110 1.000000 0.000000
1.000000 1.000000 0.000000
1.000000 1.000000 0.000000
1.000000 1.000000 0.000000
0.000000 1.000000 0.000000
0.000000 1.000000 0.000000
0.000000 1.000000 0.000000
0.000000 1.000000 0.000000
0.000000 1.000000 0.000000
0.000000 1.000000 0.000000
0.871248 1.000000 0.000000
1.000000 1.000000 0.000000
1.000000 1.000000 0.000000
0.000000 1.000000 0.000000
0.000000 1.000000 0.000000
0.000000 1.000000 0.000000
0.000000 1.000000 0.000000
0.000000 1.000000 0.000000
0.000000 1.000000 0.000000
0.000000 1.000000 0.000000
1.000000 1.000000 0.000000
1.000000 1.000000 0.000000
0.000000 0.000000 0.212354
0.003175 0.000000 0.212035
0.271406 0.000000 0.209787
0.567790 0.000000 0.203582
0.901388 0.000000 0.190639
1.000000 0.000000 0.158358
1.000000 0.000000 0.052839
1.000000 0.000000 0.000000
1.000000 0.000000 0.000000
0.000000 0.002778 0.210579
0.000000 0.000000 0.210257
0.262927 0.000000 0.207993
0.563699 0.000000 0.201743
0.898902 0.000000 0.188698
1.000000 0.000000 0.156113
1.000000 0.000000 0.049393
1.000000 0.000000 0.000000
1.000000 0.000000 0.000000
0.000000 0.213172 0.197785
0.000000 0.210978 0.197446
0.195061 0.195061 0.195061
0.534153 0.145353 0.188465
0.881284 0.000000 0.174639
1.000000 0.000000 0.139669
1.000000 0.000000 0.025269
1.000000 0.000000 0.000000
1.000000 0.000000 0.000000
0.000000 0.462548 0.159087
0.000000 0.461481 0.158685
0.000000 0.453943 0.155850
0.443884 0.432819 0.147952
0.831391 0.387003 0.131093
1.000000 0.256229 0.085862
1.000000 0.000000 0.000000
1.000000 0.000000 0.000000
1.000000 0.000000 0.000000
0.000000 0.743357 0.048464
0.000000 0.742708 0.047843
0.000000 0.738144 0.043489
0.153374 0.725602 0.031673
0.719886 0.699704 0.007962
1.000000 0.636918 0.000000
1.000000 0.454966 0.000000
1.000000 0.000000 0.000000
1.000000 0.000000 0.000000
0.000000 1.000000 0.000000
0.000000 1.000000 0.000000
0.000000 1.000000 0.000000
0.000000 1.000000 0.000000
0.345708 1.000000 0.000000
1.000000 1.000000 0.000000
1.000000 0.981332 0.000000
1.000000 0.714426 0.000000
1.000000 0.000000 0.000000
0.000000 1.000000 0.000000
0.000000 1.000000 0.000000
0.000000 1.000000 0.000000
0.000000 1.000000 0.000000
0.000000 1.000000 0.000000
0.558524 1.000000 0.000000
1.000000 1.000000 0.000000
1.000000 1.000000 0.000000
1.000000 1.000000 0.000000
0.000000 1.000000 0.000000
0.000000 1.000000 0.000000
0.000000 1.000000 0.000000
0.000000 1.000000 0.000000
0.000000 1.000000 0.000000
0.000000 1.000000 0.000000
0.869008 1.000000 0.000000
1.000000 1.000000 0.000000
1.000000 1.000000 0.000000
0.000000 1.000000 0.000000
0.000000 1.000000 0.000000
0.000000 1.000000 0.000000
0.000000 1.000000 0.000000
0.000000 1.000000 0.000000
0.000000 1.000000 0.000000
0.000000 1.000000 0.000000
1.000000 1.000000 0.000000
1.000000 1.000000 0.000000
0.000000 0.000000 0.459838
0.000000 0.000000 0.459682
0.251032 0.000000 0.458587
0.558104 0.000000 0.455601
0.895520 0.000000 0.449549
1.000000 0.000000 0.435540
1.000000 0.000000 0.400780
1.000000 0.000000 0.304630
1.000000 0.000000 0.000000
0.000000 0.000000 0.458972
0.000000 0.000000 0.458815
0.241929 0.000000 0.457718
0.553939 0.000000 0.454726
0.893016 0.000000 0.448663
1.000000 0.000000 0.434625
1.000000 0.000000 0.399787
1.000000 0.000000 0.303340
1.000000 0.000000 0.000000
0.000000 0.210375 0.452860
0.000000 0.208157 0.452701
0.167369 0.192050 0.451589
0.523824 0.141564 0.448557
0.875268 0.000000 0.442409
1.000000 0.000000 0.428167
1.000000 0.000000 0.392764
1.000000 0.000000 0.294158
1.000000 0.000000 0.000000
0.000000 0.461189 0.435839
0.000000 0.460119 0.435674
0.000000 0.452557 0.434519
0.431366 0.431366 0.431366
0.824975 0.385381 0.424970
1.000000 0.253843 0.410128
1.000000 0.000000 0.373054
1.000000 0.000000 0.267808
1.000000 0.000000 0.000000
0.000000 0.742530 0.399519
0.000000 0.741880 0.399339
0.000000 0.737311 0.398079
0.119082 0.724753 0.394640
0.712376 0.698821 0.387649
1.000000 0.635942 0.371352
1.000000 0.453583 0.330122
1.000000 0.000000 0.206394
1.000000 0.000000 0.000000
0.000000 1.000000 0.302185
0.000000 1.000000 0.301951
0.000000 1.000000 0.300306
0.000000 1.000000 0.295799
0.329604 1.000000 0.286560
1.000000 1.000000 0.264578
1.000000 0.980722 0.205265
1.000000 0.713562 0.000000
1.000000 0.000000 0.000000
0.000000 1.000000 0.000000
0.000000 1.000000 0.000000
0.000000 1.000000 0.000000
0.000000 1.000000 0.000000
0.000000 1.000000 0.000000
0.548669 1.000000 0.000000
1.000000 1.000000 0.000000
1.000000 1.000000 0.000000
1.000000 1.000000 0.000000
0.000000 1.000000 0.000000
0.000000 1.000000 0.000000
0.000000 1.000000 0.000000
0.000000 1.000000 0.000000
0.000000 1.000000 0.000000
0.000000 1.000000 0.000000
0.862898 1.000000 0.000000
1.000000 1.000000 0.000000
1.000000 1.000000 0.000000
0.000000 1.000000 0.000000
0.000000 1.000000 0.000000
0.000000 1.000000 0.000000
0.000000 1.000000 0.000000
0.000000 1.000000 0.000000
0.000000 1.000000 0.000000
0.000000 1.000000 0.000000
1.000000 1.000000 0.000000
1.000000 1.000000 0.000000
0.000000 0.000000 0.738881
0.000000 0.000000 0.738786
0.205030 0.000000 0.738119
0.538124 0.000000 0.736305
0.883616 0.000000 0.732651
1.000000 0.000000 0.724307
1.000000 0.000000 0.704319
1.000000 0.000000 0.654872
1.000000 0.000000 0.519589
0.000000 0.000000 0.738353
0.000000 0.000000 0.738258
0.194151 0.000000 0.737590
0.533797 0.000000 0.735775
0.881075 0.000000 0.732119
1.000000 0.000000 0.723768
1.000000 0.000000 0.703764
1.000000 0.000000 0.654271
1.000000 0.000000 0.518824
0.000000 0.204667 0.734647
0.000000 0.202398 0.734551
0.097170 0.185889 0.733880
0.502439 0.133734 0.732055
0.863056 0.000000 0.728378
1.000000 0.000000 0.719981
1.000000 0.000000 0.699860
1.000000 0.000000 0.650050
1.000000 0.000000 0.513436
0.000000 0.458449 0.724484
0.000000 0.457372 0.724387
0.000000 0.449765 0.723705
0.405093 0.428436 0.721853
0.811934 0.382104 0.718120
1.000000 0.248997 0.709592
1.000000 0.000000 0.689146
1.000000 0.000000 0.638443
1.000000 0.000000 0.498509
0.000000 0.740867 0.703614
0.000000 0.740215 0.703514
0.000000 0.735635 0.702811
0.028534 0.723046 0.700899
0.697045 0.697045 0.697045
1.000000 0.633978 0.688237
1.000000 0.450797 0.667090
1.000000 0.000000 0.614453
1.000000 0.000000 0.467093
0.000000 1.000000 0.653735
0.000000 1.000000 0.653627
0.000000 1.000000 0.652866
0.000000 1.000000 0.650798
0.294830 1.000000 0.646625
1.000000 1.000000 0.637074
1.000000 0.979496 0.614054
1.000000 0.711826 0.556136
1.000000 0.000000 0.386648
0.000000 1.000000 0.517022
0.000000 1.000000 0.516883
0.000000 1.000000 0.515912
0.000000 1.000000 0.513264
0.000000 1.000000 0.507909
0.528319 1.000000 0.495568
1.000000 1.000000 0.465317
1.000000 1.000000 0.385147
1.000000 1.000000 0.035315
0.000000 1.000000 0.000000
0.000000 1.000000 0.000000
0.000000 1.000000 0.000000
0.000000 1.000000 0.000000
0.000000 1.000000 0.000000
0.000000 1.000000 0.000000
0.850492 1.000000 0.000000
1.000000 1.000000 0.000000
1.000000 1.000000 0.000000
0.000000 1.000000 0.000000
0.000000 1.000000 0.000000
0.000000 1.000000 0.000000
0.000000 1.000000 0.000000
0.000000 1.000000 0.000000
0.000000 1.000000 0.000000
0.000000 1.000000 0.000000
1.000000 1.000000 0.000000
1.000000 1.000000 0.000000
0.000000 0.000000 1.000000
0.000000 0.000000 1.000000
0.043423 0.000000 1.000000
0.489800 0.000000 1.000000
0.855998 0.000000 1.000000
1.000000 0.000000 1.000000
1.000000 0.000000 1.000000
1.000000 0.000000 1.000000
1.000000 0.000000 1.000000
0.000000 0.000000 1.000000
0.000000 0.000000 1.000000
0.023288 0.000000 1.000000
0.485032 0.000000 1.000000
0.853366 0.000000 1.000000
1.000000 0.000000 1.000000
1.000000 0.000000 1.000000
1.000000 0.000000 1.000000
1.000000 0.000000 1.000000
0.000000 0.191236 1.000000
0.000000 0.188837 1.000000
0.000000 0.171305 1.000000
0.450226 0.114697 1.000000
0.834690 0.000000 1.000000
1.000000 0.000000 1.000000
1.000000 0.000000 1.000000
1.000000 0.000000 1.000000
1.000000 0.000000 1.000000
0.000000 0.452186 1.000000
0.000000 0.451094 1.000000
0.000000 0.443379 1.000000
0.338377 0.421728 1.000000
0.781537 0.374585 1.000000
1.000000 0.237710 1.000000
1.000000 0.000000 1.000000
1.000000 0.000000 1.000000
1.000000 0.000000 0.996674
0.000000 0.737087 1.000000
0.000000 0.736432 1.000000
0.000000 0.731826 1.000000
0.000000 0.719165 1.000000
0.660935 0.693008 1.000000
1.000000 0.629510 1.000000
1.000000 0.444426 1.000000
1.000000 0.000000 1.000000
1.000000 0.000000 0.982062
0.000000 1.000000 1.000000
0.000000 1.000000 1.000000
0.000000 1.000000 1.000000
0.000000 1.000000 1.000000
0.197397 1.000000 1.000000
1.000000 1.000000 1.000000
1.000000 0.976715 1.000000
1.000000 0.707880 1.000000
1.000000 0.000000 0.948060
0.000000 1.000000 1.000000
0.000000 1.000000 1.000000
0.000000 1.000000 1.000000
0.000000 1.000000 1.000000
0.000000 1.000000 1.000000
0.478983 1.000000 0.995276
1.000000 1.000000 0.981258
1.000000 1.000000 0.947474
1.000000 1.000000 0.862474
0.000000 1.000000 0.804956
0.000000 1.000000 0.804869
0.000000 1.000000 0.804261
0.000000 1.000000 0.802609
0.000000 1.000000 0.799283
0.000000 1.000000 0.791696
0.821650 1.000000 0.773585
1.000000 1.000000 0.729189
1.000000 1.000000 0.611531
0.000000 1.000000 0.000000
0.000000 1.000000 0.000000
0.000000 1.000000 0.000000
0.000000 1.000000 0.000000
0.000000 1.000000 0.000000
0.000000 1.000000 0.000000
0.000000 1.000000 0.000000
1.000000 1.000000 0.000000
1.000000 1.000000 0.000000
0.000000 0.000000 1.000000
0.000000 0.000000 1.000000
0.000000 0.000000 1.000000
0.351151 0.000000 1.000000
0.787044 0.000000 1.000000
1.000000 0.000000 1.000000
1.000000 0.000000 1.000000
1.000000 0.000000 1.000000
1.000000 0.000000 1.000000
0.000000 0.000000 1.000000
0.000000 0.000000 1.000000
0.000000 0.000000 1.000000
0.344504 0.000000 1.000000
0.784159 0.000000 1.000000
1.000000 0.000000 1.000000
1.000000 0.000000 1.000000
1.000000 0.000000 1.000000
1.000000 0.000000 1.000000
0.000000 0.156293 1.000000
0.000000 0.153481 1.000000
0.000000 0.132620 1.000000
0.294071 0.060333 1.000000
0.763634 0.000000 1.000000
1.000000 0.000000 1.000000
1.000000 0.000000 1.000000
1.000000 0.000000 1.000000
1.000000 0.000000 1.000000
0.000000 0.437143 1.000000
0.000000 0.436014 1.000000
0.000000 0.428027 1.000000
0.075512 0.405566 1.000000
0.704658 0.356351 1.000000
1.000000 0.209229 1.000000
1.000000 0.000000 1.000000
1.000000 0.000000 1.000000
1.000000 0.000000 1.000000
0.000000 0.728139 1.000000
0.000000 0.727475 1.000000
0.000000 0.722808 1.000000
0.000000 0.709974 1.000000
0.566695 0.683440 1.000000
1.000000 0.618897 1.000000
1.000000 0.429112 1.000000
1.000000 0.000000 1.000000
1.000000 0.000000 1.000000
0.000000 1.000000 1.000000
0.000000 1.000000 1.000000
0.000000 1.000000 1.000000
0.000000 1.000000 1.000000
0.000000 1.000000 1.000000
1.000000 1.000000 1.000000
1.000000 0.970158 1.000000
1.000000 0.698529 1.000000
1.000000 0.000000 1.000000
0.000000 1.000000 1.000000
0.000000 1.000000 1.000000
0.000000 1.000000 1.000000
0.000000 1.000000 1.000000
0.000000 1.000000 1.000000
0.335990 1.000000 1.000000
1.000000 1.000000 1.000000
1.000000 1.000000 1.000000
1.000000 1.000000 1.000000
0.000000 1.000000 1.000000
0.000000 1.000000 1.000000
0.000000 1.000000 1.000000
0.000000 1.000000 1.000000
0.000000 1.000000 1.000000
0.000000 1.000000 1.000000
0.749245 1.000000 1.000000
1.000000 1.000000 1.000000
1.000000 1.000000 1.000000
0.000000 1.000000 1.000000
0.000000 1.000000 1.000000
0.000000 1.000000 1.000000
0.000000 1.000000 1.000000
0.000000 1.000000 1.000000
0.000000 1.000000 1.000000
0.000000 1.000000 1.000000
1.000000 1.000000 1.000000
1.000000 1.000000 1.000000
0.000000 0.000000 1.000000
0.000000 0.000000 1.000000
0.000000 0.000000 1.000000
0.000000 0.000000 1.000000
0.591714 0.000000 1.000000
1.000000 0.000000 1.000000
1.000000 0.000000 1.000000
1.000000 0.000000 1.000000
1.000000 0.000000 1.000000
0.000000 0.000000 1.000000
0.000000 0.000000 1.000000
0.000000 0.000000 1.000000
0.000000 0.000000 1.000000
0.587796 0.000000 1.000000
1.000000 0.000000 1.000000
1.000000 0.000000 1.000000
1.000000 0.000000 1.000000
1.000000 0.000000 1.000000
0.000000 0.039730 1.000000
0.000000 0.035463 1.000000
0.000000 0.005590 1.000000
0.000000 0.000000 1.000000
0.559574 0.000000 1.000000
1.000000 0.000000 1.000000
1.000000 0.000000 1.000000
1.000000 0.000000 1.000000
1.000000 0.000000 1.000000
0.000000 0.399660 1.000000
0.000000 0.398426 1.000000
0.000000 0.389682 1.000000
0.000000 0.364924 1.000000
0.474274 0.309624 1.000000
1.000000 0.124802 1.000000
1.000000 0.000000 1.000000
1.000000 0.000000 1.000000
1.000000 0.000000 1.000000
0.000000 0.706673 1.000000
0.000000 0.705987 1.000000
0.000000 0.701166 1.000000
0.000000 0.687899 1.000000
0.221938 0.660416 1.000000
1.000000 0.593217 1.000000
1.000000 0.390871 1.000000
1.000000 0.000000 1.000000
1.000000 0.000000 1.000000
0.000000 1.000000 1.000000
0.000000 1.000000 1.000000
0.000000 1.000000 1.000000
0.000000 1.000000 1.000000
0.000000 1.000000 1.000000
0.877971 1.000000 1.000000
1.000000 0.954581 1.000000
1.000000 0.676054 1.000000
1.000000 0.000000 1.000000
0.000000 1.000000 1.000000
0.000000 1.000000 1.000000
0.000000 1.000000 1.000000
0.000000 1.000000 1.000000
0.000000 1.000000 1.000000
0.000000 1.000000 1.000000
1.000000 1.000000 1.000000
1.000000 1.000000 1.000000
1.000000 1.000000 1.000000
0.000000 1.000000 1.000000
0.000000 1.000000 1.000000
0.000000 1.000000 1.000000
0.000000 1.000000 1.000000
0.000000 1.000000 1.000000
0.000000 1.000000 1.000000
0.539389 1.000000 1.000000
1.000000 1.000000 1.000000
1.000000 1.000000 1.000000
0.000000 1.000000 1.000000
0.000000 1.000000 1.000000
0.000000 1.000000 1.000000
0.000000 1.000000 1.000000
0.000000 1.000000 1.000000
0.000000 1.000000 1.000000
0.000000 1.000000 1.000000
1.000000 1.000000 1.000000
1.000000 1.000000 1.000000
0.000000 0.000000 1.000000
0.000000 0.000000 1.000000
0.000000 0.000000 1.000000
0.000000 0.000000 1.000000
0.000000 0.000000 1.000000
0.911444 0.000000 1.000000
1.000000 0.000000 1.000000
1.000000 0.000000 1.000000
1.000000 0.000000 1.000000
0.000000 0.000000 1.000000
0.000000 0.000000 1.000000
0.000000 0.000000 1.000000
0.000000 0.000000 1.000000
0.000000 0.000000 1.000000
0.908989 0.000000 1.000000
1.000000 0.000000 1.000000
1.000000 0.000000 1.000000
1.000000 0.000000 1.000000
0.000000 0.000000 1.000000
0.000000 0.000000 1.000000
0.000000 0.000000 1.000000
0.000000 0.000000 1.000000
0.000000 0.000000 1.000000
0.891590 0.000000 1.000000
1.000000 0.000000 1.000000
1.000000 0.000000 1.000000
1.000000 0.000000 1.000000
0.000000 0.294304 1.000000
0.000000 0.292653 1.000000
0.000000 0.280850 1.000000
0.000000 0.246295 1.000000
0.000000 0.159661 1.000000
0.842367 0.000000 1.000000
1.000000 0.000000 1.000000
1.000000 0.000000 1.000000
1.000000 0.000000 1.000000
0.000000 0.653357 1.000000
0.000000 0.652612 1.000000
0.000000 0.647366 1.000000
0.000000 0.632895 1.000000
0.000000 0.602750 1.000000
0.732687 0.527874 1.000000
1.000000 0.282466 1.000000
1.000000 0.000000 1.000000
1.000000 0.000000 1.000000
0.000000 1.000000 1.000000
0.000000 1.000000 1.000000
0.000000 1.000000 1.000000
0.000000 1.000000 1.000000
0.000000 1.000000 1.000000
0.372007 1.000000 1.000000
1.000000 0.916894 1.000000
1.000000 0.619932 1.000000
1.000000 0.000000 1.000000
0.000000 1.000000 1.000000
0.000000 1.000000 1.000000
0.000000 1.000000 1.000000
0.000000 1.000000 1.000000
0.000000 1.000000 1.000000
0.000000 1.000000 1.000000
1.000000 1.000000 1.000000
1.000000 1.000000 1.000000
1.000000 1.000000 1.000000
0.000000 1.000000 1.000000
0.000000 1.000000 1.000000
0.000000 1.000000 1.000000
0.000000 1.000000 1.000000
0.000000 1.000000 1.000000
0.000000 1.000000 1.000000
0.000000 1.000000 1.000000
1.000000 1.000000 1.000000
1.000000 1.000000 1.000000
0.000000 1.000000 1.000000
0.000000 1.000000 1.000000
0.000000 1.000000 1.000000
0.000000 1.000000 1.000000
0.000000 1.000000 1.000000
0.000000 1.000000 1.000000
0.000000 1.000000 1.000000
0.837897 1.000000 1.000000
1.000000 1.000000 1.000000
